<?xml version="1.0" encoding="UTF-8"?>
<map version="1.10" tiledversion="1.12.1" orientation="orthogonal" renderorder="right-down" width="39" height="39" tilewidth="32" tileheight="32" infinite="0" nextlayerid="4" nextobjectid="1035">
 <tileset firstgid="1" source="spring.tsx"/>
 <layer id="1" name="Tile Layer 1" width="39" height="39">
  <data encoding="csv">
1,2,3,4,5,6,7,8,9,10,11,12,13,14,15,16,17,18,19,20,21,22,23,24,25,26,27,28,29,30,31,32,33,34,35,36,37,38,39,
40,41,42,43,44,45,46,47,48,49,50,51,52,53,54,55,56,57,58,59,60,61,62,63,64,65,66,67,68,69,70,71,72,73,74,75,76,77,78,
79,80,81,82,83,84,85,86,87,88,89,90,91,92,93,94,95,96,97,98,99,100,101,102,103,104,105,106,107,108,109,110,111,112,113,114,115,116,117,
118,119,120,121,122,123,124,125,126,127,128,129,130,131,132,133,134,135,136,137,138,139,140,141,142,143,144,145,146,147,148,149,150,151,152,153,154,155,156,
157,158,159,160,161,162,163,164,165,166,167,168,169,170,171,172,173,174,175,176,177,178,179,180,181,182,183,184,185,186,187,188,189,190,191,192,193,194,195,
196,197,198,199,200,201,202,203,204,205,206,207,208,209,210,211,212,213,214,215,216,217,218,219,220,221,222,223,224,225,226,227,228,229,230,231,232,233,234,
235,236,237,238,239,240,241,242,243,244,245,246,247,248,249,250,251,252,253,254,255,256,257,258,259,260,261,262,263,264,265,266,267,268,269,270,271,272,273,
274,275,276,277,278,279,280,281,282,283,284,285,286,287,288,289,290,291,292,293,294,295,296,297,298,299,300,301,302,303,304,305,306,307,308,309,310,311,312,
313,314,315,316,317,318,319,320,321,322,323,324,325,326,327,328,329,330,331,332,333,334,335,336,337,338,339,340,341,342,343,344,345,346,347,348,349,350,351,
352,353,354,355,356,357,358,359,360,361,362,363,364,365,366,367,368,369,370,371,372,373,374,375,376,377,378,379,380,381,382,383,384,385,386,387,388,389,390,
391,392,393,394,395,396,397,398,399,400,401,402,403,404,405,406,407,408,409,410,411,412,413,414,415,416,417,418,419,420,421,422,423,424,425,426,427,428,429,
430,431,432,433,434,435,436,437,438,439,440,441,442,443,444,445,446,447,448,449,450,451,452,453,454,455,456,457,458,459,460,461,462,463,464,465,466,467,468,
469,470,471,472,473,474,475,476,477,478,479,480,481,482,483,484,485,486,487,488,489,490,491,492,493,494,495,496,497,498,499,500,501,502,503,504,505,506,507,
508,509,510,511,512,513,514,515,516,517,518,519,520,521,522,523,524,525,526,527,528,529,530,531,532,533,534,535,536,537,538,539,540,541,542,543,544,545,546,
547,548,549,550,551,552,553,554,555,556,557,558,559,560,561,562,563,564,565,566,567,568,569,570,571,572,573,574,575,576,577,578,579,580,581,582,583,584,585,
586,587,588,589,590,591,592,593,594,595,596,597,598,599,600,601,602,603,604,605,606,607,608,609,610,611,612,613,614,615,616,617,618,619,620,621,622,623,624,
625,626,627,628,629,630,631,632,633,634,635,636,637,638,639,640,641,642,643,644,645,646,647,648,649,650,651,652,653,654,655,656,657,658,659,660,661,662,663,
664,665,666,667,668,669,670,671,672,673,674,675,676,677,678,679,680,681,682,683,684,685,686,687,688,689,690,691,692,693,694,695,696,697,698,699,700,701,702,
703,704,705,706,707,708,709,710,711,712,713,714,715,716,717,718,719,720,721,722,723,724,725,726,727,728,729,730,731,732,733,734,735,736,737,738,739,740,741,
742,743,744,745,746,747,748,749,750,751,752,753,754,755,756,757,758,759,760,761,762,763,764,765,766,767,768,769,770,771,772,773,774,775,776,777,778,779,780,
781,782,783,784,785,786,787,788,789,790,791,792,793,794,795,796,797,798,799,800,801,802,803,804,805,806,807,808,809,810,811,812,813,814,815,816,817,818,819,
820,821,822,823,824,825,826,827,828,829,830,831,832,833,834,835,836,837,838,839,840,841,842,843,844,845,846,847,848,849,850,851,852,853,854,855,856,857,858,
859,860,861,862,863,864,865,866,867,868,869,870,871,872,873,874,875,876,877,878,879,880,881,882,883,884,885,886,887,888,889,890,891,892,893,894,895,896,897,
898,899,900,901,902,903,904,905,906,907,908,909,910,911,912,913,914,915,916,917,918,919,920,921,922,923,924,925,926,927,928,929,930,931,932,933,934,935,936,
937,938,939,940,941,942,943,944,945,946,947,948,949,950,951,952,953,954,955,956,957,958,959,960,961,962,963,964,965,966,967,968,969,970,971,972,973,974,975,
976,977,978,979,980,981,982,983,984,985,986,987,988,989,990,991,992,993,994,995,996,997,998,999,1000,1001,1002,1003,1004,1005,1006,1007,1008,1009,1010,1011,1012,1013,1014,
1015,1016,1017,1018,1019,1020,1021,1022,1023,1024,1025,1026,1027,1028,1029,1030,1031,1032,1033,1034,1035,1036,1037,1038,1039,1040,1041,1042,1043,1044,1045,1046,1047,1048,1049,1050,1051,1052,1053,
1054,1055,1056,1057,1058,1059,1060,1061,1062,1063,1064,1065,1066,1067,1068,1069,1070,1071,1072,1073,1074,1075,1076,1077,1078,1079,1080,1081,1082,1083,1084,1085,1086,1087,1088,1089,1090,1091,1092,
1093,1094,1095,1096,1097,1098,1099,1100,1101,1102,1103,1104,1105,1106,1107,1108,1109,1110,1111,1112,1113,1114,1115,1116,1117,1118,1119,1120,1121,1122,1123,1124,1125,1126,1127,1128,1129,1130,1131,
1132,1133,1134,1135,1136,1137,1138,1139,1140,1141,1142,1143,1144,1145,1146,1147,1148,1149,1150,1151,1152,1153,1154,1155,1156,1157,1158,1159,1160,1161,1162,1163,1164,1165,1166,1167,1168,1169,1170,
1171,1172,1173,1174,1175,1176,1177,1178,1179,1180,1181,1182,1183,1184,1185,1186,1187,1188,1189,1190,1191,1192,1193,1194,1195,1196,1197,1198,1199,1200,1201,1202,1203,1204,1205,1206,1207,1208,1209,
1210,1211,1212,1213,1214,1215,1216,1217,1218,1219,1220,1221,1222,1223,1224,1225,1226,1227,1228,1229,1230,1231,1232,1233,1234,1235,1236,1237,1238,1239,1240,1241,1242,1243,1244,1245,1246,1247,1248,
1249,1250,1251,1252,1253,1254,1255,1256,1257,1258,1259,1260,1261,1262,1263,1264,1265,1266,1267,1268,1269,1270,1271,1272,1273,1274,1275,1276,1277,1278,1279,1280,1281,1282,1283,1284,1285,1286,1287,
1288,1289,1290,1291,1292,1293,1294,1295,1296,1297,1298,1299,1300,1301,1302,1303,1304,1305,1306,1307,1308,1309,1310,1311,1312,1313,1314,1315,1316,1317,1318,1319,1320,1321,1322,1323,1324,1325,1326,
1327,1328,1329,1330,1331,1332,1333,1334,1335,1336,1337,1338,1339,1340,1341,1342,1343,1344,1345,1346,1347,1348,1349,1350,1351,1352,1353,1354,1355,1356,1357,1358,1359,1360,1361,1362,1363,1364,1365,
1366,1367,1368,1369,1370,1371,1372,1373,1374,1375,1376,1377,1378,1379,1380,1381,1382,1383,1384,1385,1386,1387,1388,1389,1390,1391,1392,1393,1394,1395,1396,1397,1398,1399,1400,1401,1402,1403,1404,
1405,1406,1407,1408,1409,1410,1411,1412,1413,1414,1415,1416,1417,1418,1419,1420,1421,1422,1423,1424,1425,1426,1427,1428,1429,1430,1431,1432,1433,1434,1435,1436,1437,1438,1439,1440,1441,1442,1443,
1444,1445,1446,1447,1448,1449,1450,1451,1452,1453,1454,1455,1456,1457,1458,1459,1460,1461,1462,1463,1464,1465,1466,1467,1468,1469,1470,1471,1472,1473,1474,1475,1476,1477,1478,1479,1480,1481,1482,
1483,1484,1485,1486,1487,1488,1489,1490,1491,1492,1493,1494,1495,1496,1497,1498,1499,1500,1501,1502,1503,1504,1505,1506,1507,1508,1509,1510,1511,1512,1513,1514,1515,1516,1517,1518,1519,1520,1521
</data>
 </layer>
 <objectgroup id="2" name="Ho">
  <object id="13" x="62.3607" y="100.155" width="274.009" height="56.6915"/>
  <object id="18" x="51.0224" y="141.729"/>
  <object id="19" x="41.5738" y="126.611"/>
  <object id="20" x="52.9121" y="115.273"/>
  <object id="21" x="49.1326" y="107.714"/>
  <object id="22" x="56.6915" y="90.7064"/>
  <object id="23" x="71.8093" y="88.8167"/>
  <object id="24" x="90.7064" y="86.927"/>
  <object id="25" x="109.604" y="90.7064"/>
  <object id="26" x="132.28" y="92.5961"/>
  <object id="27" x="153.067" y="88.8167"/>
  <object id="28" x="166.295" y="73.699"/>
  <object id="29" x="168.185" y="92.5961"/>
  <object id="30" x="187.082" y="92.5961"/>
  <object id="31" x="183.303" y="73.699"/>
  <object id="32" x="202.2" y="96.3756"/>
  <object id="33" x="204.089" y="71.8093"/>
  <object id="34" x="221.097" y="96.3756"/>
  <object id="35" x="226.766" y="75.5887"/>
  <object id="36" x="239.994" y="98.2653"/>
  <object id="37" x="243.774" y="58.5812"/>
  <object id="38" x="264.56" y="51.0224"/>
  <object id="39" x="281.568" y="58.5812"/>
  <object id="40" x="243.774" y="64.2504" width="96.3756" height="47.2429"/>
  <object id="41" x="238.104" y="77.4784"/>
  <object id="42" x="304.244" y="56.6915"/>
  <object id="43" x="345.818" y="83.1476"/>
  <object id="44" x="343.929" y="117.162"/>
  <object id="45" x="338.259" y="136.06"/>
  <object id="48" x="117.162" y="166.295" width="147.398" height="98.2653"/>
  <object id="49" x="98.2653" y="160.626" width="224.876" height="18.8972"/>
  <object id="50" x="88.8167" y="166.295"/>
  <object id="51" x="111.493" y="190.861"/>
  <object id="52" x="94.4859" y="185.192"/>
  <object id="53" x="86.927" y="202.2"/>
  <object id="54" x="105.824" y="204.089"/>
  <object id="55" x="85.0373" y="219.207"/>
  <object id="56" x="105.824" y="222.987"/>
  <object id="57" x="88.8167" y="236.215"/>
  <object id="58" x="107.714" y="243.774"/>
  <object id="59" x="126.611" y="272.119"/>
  <object id="60" x="126.611" y="272.119" width="113.383" height="22.6766"/>
  <object id="61" x="168.185" y="292.906"/>
  <object id="62" x="141.729" y="270.23"/>
  <object id="63" x="158.736" y="268.34"/>
  <object id="64" x="183.303" y="266.45"/>
  <object id="65" x="213.538" y="268.34" width="1.88972"/>
  <object id="66" x="158.736" y="266.45"/>
  <object id="67" x="170.075" y="266.45"/>
  <object id="68" x="198.42" y="266.45"/>
  <object id="69" x="211.648" y="266.45"/>
  <object id="70" x="228.656" y="266.45"/>
  <object id="71" x="247.553" y="268.34"/>
  <object id="72" x="260.781" y="268.34"/>
  <object id="73" x="239.994" y="277.788"/>
  <object id="74" x="181.413" y="264.56"/>
  <object id="75" x="275.899" y="239.994"/>
  <object id="76" x="275.899" y="234.325"/>
  <object id="77" x="274.009" y="221.097"/>
  <object id="78" x="274.009" y="213.538"/>
  <object id="79" x="272.119" y="207.869"/>
  <object id="80" x="272.119" y="196.531"/>
  <object id="81" x="274.009" y="188.972"/>
  <object id="82" x="291.016" y="188.972"/>
  <object id="85" x="1001.55" y="262.671" width="149.288" height="85.0373"/>
  <object id="86" x="1005.33" y="357.157"/>
  <object id="87" x="1026.12" y="372.274"/>
  <object id="88" x="1046.9" y="377.943"/>
  <object id="89" x="1065.8" y="381.723"/>
  <object id="90" x="1080.92" y="383.613"/>
  <object id="91" x="1097.93" y="381.723"/>
  <object id="92" x="1113.04" y="377.943"/>
  <object id="93" x="1124.38" y="359.046"/>
  <object id="94" x="1103.59" y="360.936"/>
  <object id="95" x="1090.37" y="359.046"/>
  <object id="96" x="1009.11" y="332.59" width="113.383" height="41.5738"/>
  <object id="97" x="992.102" y="353.377"/>
  <object id="98" x="978.874" y="349.598"/>
  <object id="99" x="967.535" y="345.818"/>
  <object id="100" x="971.315" y="334.48"/>
  <object id="101" x="967.535" y="325.031"/>
  <object id="102" x="967.535" y="311.803"/>
  <object id="103" x="975.094" y="304.244"/>
  <object id="104" x="984.543" y="292.906"/>
  <object id="105" x="995.881" y="281.568"/>
  <object id="106" x="995.881" y="274.009"/>
  <object id="107" x="1009.11" y="264.56"/>
  <object id="108" x="1024.23" y="251.332"/>
  <object id="109" x="1041.23" y="255.112"/>
  <object id="110" x="1063.91" y="257.002"/>
  <object id="111" x="1041.23" y="249.443"/>
  <object id="112" x="1090.37" y="264.56"/>
  <object id="113" x="1113.04" y="258.891"/>
  <object id="114" x="1124.38" y="255.112"/>
  <object id="115" x="1141.39" y="266.45"/>
  <object id="116" x="1156.51" y="275.899"/>
  <object id="117" x="1156.51" y="285.347"/>
  <object id="118" x="971.315" y="308.024" width="39.6841" height="34.0149"/>
  <object id="119" x="978.874" y="292.906" width="35.9046" height="30.2355"/>
  <object id="120" x="1012.89" y="266.45" width="137.949" height="77.4784"/>
  <object id="121" x="1026.12" y="260.781" width="115.273" height="17.0075"/>
  <object id="122" x="1045.01" y="334.48"/>
  <object id="123" x="1046.9" y="349.598"/>
  <object id="124" x="1020.45" y="334.48"/>
  <object id="125" x="1020.45" y="302.355"/>
  <object id="126" x="1048.79" y="296.686" width="45.3532" height="9.44859"/>
  <object id="127" x="1114.93" y="315.583"/>
  <object id="128" x="1113.04" y="349.598"/>
  <object id="129" x="1139.5" y="334.48"/>
  <object id="130" x="139.839" y="780.453"/>
  <object id="131" x="128.501" y="788.012"/>
  <object id="132" x="120.942" y="803.13"/>
  <object id="133" x="109.604" y="806.909"/>
  <object id="134" x="98.2653" y="820.137"/>
  <object id="135" x="102.045" y="839.034"/>
  <object id="136" x="119.052" y="842.814"/>
  <object id="137" x="126.611" y="856.042"/>
  <object id="138" x="145.508" y="861.711"/>
  <object id="139" x="160.626" y="863.601"/>
  <object id="140" x="181.413" y="867.38"/>
  <object id="141" x="198.42" y="871.16"/>
  <object id="142" x="221.097" y="857.932"/>
  <object id="143" x="241.884" y="842.814"/>
  <object id="144" x="258.891" y="827.696"/>
  <object id="145" x="268.34" y="805.02"/>
  <object id="146" x="285.347" y="788.012"/>
  <object id="147" x="277.788" y="776.674"/>
  <object id="148" x="257.002" y="769.115"/>
  <object id="149" x="238.104" y="765.335"/>
  <object id="150" x="222.987" y="772.894"/>
  <object id="151" x="209.759" y="780.453"/>
  <object id="152" x="194.641" y="780.453"/>
  <object id="153" x="181.413" y="782.343"/>
  <object id="154" x="173.854" y="778.564"/>
  <object id="155" x="156.847" y="774.784"/>
  <object id="156" x="137.949" y="801.24"/>
  <object id="157" x="115.273" y="822.027" width="137.949" height="18.8972"/>
  <object id="158" x="145.508" y="839.034"/>
  <object id="159" x="139.839" y="844.704" width="96.3756" height="15.1177"/>
  <object id="160" x="105.824" y="822.027"/>
  <object id="161" x="122.832" y="831.476"/>
  <object id="162" x="139.839" y="842.814"/>
  <object id="163" x="145.508" y="846.593"/>
  <object id="164" x="170.075" y="846.593"/>
  <object id="165" x="236.215" y="854.152"/>
  <object id="166" x="239.994" y="835.255"/>
  <object id="167" x="245.663" y="825.806"/>
  <object id="168" x="251.332" y="816.358"/>
  <object id="169" x="253.222" y="808.799"/>
  <object id="170" x="258.891" y="789.902" width="1.88972"/>
  <object id="171" x="275.899" y="789.902"/>
  <object id="172" x="262.671" y="789.902"/>
  <object id="173" x="251.332" y="789.902"/>
  <object id="174" x="239.994" y="780.453"/>
  <object id="175" x="239.994" y="780.453"/>
  <object id="176" x="239.994" y="793.681"/>
  <object id="177" x="226.766" y="814.468"/>
  <object id="178" x="213.538" y="820.137"/>
  <object id="179" x="213.538" y="816.358"/>
  <object id="180" x="215.428" y="808.799"/>
  <object id="181" x="226.766" y="805.02"/>
  <object id="182" x="226.766" y="788.012"/>
  <object id="183" x="219.207" y="786.122"/>
  <object id="184" x="211.648" y="786.122"/>
  <object id="185" x="205.979" y="786.122" width="1.88972"/>
  <object id="186" x="204.089" y="786.122"/>
  <object id="187" x="202.2" y="788.012" height="3.77943"/>
  <object id="188" x="202.2" y="795.571" height="1.88972"/>
  <object id="189" x="198.42" y="803.13" height="3.77943"/>
  <object id="190" x="198.42" y="808.799"/>
  <object id="191" x="198.42" y="820.137"/>
  <object id="192" x="198.42" y="820.137"/>
  <object id="193" x="190.861" y="822.027" width="3.77943"/>
  <object id="194" x="175.744" y="816.358"/>
  <object id="195" x="183.303" y="816.358"/>
  <object id="196" x="168.185" y="820.137"/>
  <object id="197" x="168.185" y="820.137"/>
  <object id="198" x="153.067" y="818.248"/>
  <object id="199" x="153.067" y="818.248"/>
  <object id="200" x="126.611" y="816.358"/>
  <object id="201" x="149.288" y="816.358"/>
  <object id="202" x="151.177" y="801.24"/>
  <object id="203" x="153.067" y="795.571"/>
  <object id="204" x="156.847" y="789.902"/>
  <object id="205" x="156.847" y="789.902"/>
  <object id="206" x="171.964" y="789.902"/>
  <object id="207" x="175.744" y="795.571" width="1.88972" height="3.77943"/>
  <object id="208" x="177.633" y="803.13"/>
  <object id="209" x="200.31" y="808.799" width="9.44859"/>
  <object id="210" x="219.207" y="808.799"/>
  <object id="211" x="211.648" y="806.909"/>
  <object id="212" x="190.861" y="805.02"/>
  <object id="213" x="111.493" y="829.586"/>
  <object id="214" x="139.839" y="823.917"/>
  <object id="215" x="141.729" y="814.468"/>
  <object id="216" x="149.288" y="808.799" width="15.1177"/>
  <object id="217" x="190.861" y="829.586" width="7.55887" height="5.66915"/>
  <object id="218" x="198.42" y="835.255"/>
  <object id="219" x="238.104" y="840.924" width="1.88972"/>
  <object id="220" x="253.222" y="810.689"/>
  <object id="221" x="272.119" y="797.461" width="3.77943" height="1.88972"/>
  <object id="222" x="258.891" y="795.571"/>
  <object id="223" x="251.332" y="780.453"/>
  <object id="224" x="232.435" y="776.674"/>
  <object id="225" x="905.175" y="816.358"/>
  <object id="226" x="888.167" y="822.027"/>
  <object id="227" x="882.498" y="840.924"/>
  <object id="228" x="882.498" y="857.932"/>
  <object id="229" x="893.836" y="867.38"/>
  <object id="230" x="907.064" y="882.498"/>
  <object id="231" x="916.513" y="893.836"/>
  <object id="232" x="912.733" y="914.623"/>
  <object id="233" x="925.961" y="925.961"/>
  <object id="234" x="939.189" y="941.079"/>
  <object id="235" x="935.41" y="961.866"/>
  <object id="236" x="918.403" y="978.874"/>
  <object id="237" x="903.285" y="993.991"/>
  <object id="238" x="888.167" y="1011"/>
  <object id="239" x="871.16" y="1018.56"/>
  <object id="240" x="865.491" y="1028.01"/>
  <object id="241" x="859.821" y="1048.79"/>
  <object id="242" x="865.491" y="1060.13"/>
  <object id="243" x="871.16" y="1037.45"/>
  <object id="244" x="873.049" y="1069.58"/>
  <object id="245" x="884.388" y="1077.14"/>
  <object id="246" x="897.616" y="1084.7"/>
  <object id="247" x="912.733" y="1092.26"/>
  <object id="248" x="933.52" y="1082.81"/>
  <object id="249" x="950.528" y="1080.92"/>
  <object id="250" x="971.315" y="1075.25"/>
  <object id="251" x="984.543" y="1080.92"/>
  <object id="252" x="995.881" y="1096.04"/>
  <object id="253" x="1014.78" y="1099.82"/>
  <object id="254" x="1035.57" y="1103.59"/>
  <object id="255" x="1058.24" y="1103.59"/>
  <object id="256" x="1077.14" y="1107.37"/>
  <object id="257" x="1092.26" y="1105.48"/>
  <object id="258" x="1101.71" y="1090.37"/>
  <object id="259" x="1116.82" y="1079.03"/>
  <object id="261" x="1128.16" y="1073.36"/>
  <object id="262" x="1133.83" y="1058.24"/>
  <object id="263" x="1150.84" y="1041.23"/>
  <object id="264" x="1145.17" y="1026.12"/>
  <object id="265" x="1139.5" y="1012.89"/>
  <object id="266" x="1139.5" y="992.102"/>
  <object id="267" x="1152.73" y="975.094"/>
  <object id="268" x="1150.84" y="952.418"/>
  <object id="269" x="1158.4" y="937.3"/>
  <object id="270" x="1171.62" y="929.741"/>
  <object id="271" x="1182.96" y="922.182"/>
  <object id="272" x="1186.74" y="908.954"/>
  <object id="273" x="1186.74" y="893.836"/>
  <object id="274" x="1182.96" y="882.498"/>
  <object id="275" x="1177.29" y="869.27"/>
  <object id="276" x="1169.73" y="859.821"/>
  <object id="277" x="1162.18" y="852.262"/>
  <object id="278" x="1148.95" y="846.593"/>
  <object id="279" x="1135.72" y="839.034"/>
  <object id="280" x="1111.15" y="840.924"/>
  <object id="281" x="1092.26" y="835.255"/>
  <object id="282" x="1079.03" y="823.917"/>
  <object id="283" x="1088.48" y="831.476"/>
  <object id="284" x="1105.48" y="839.034"/>
  <object id="285" x="1124.38" y="842.814"/>
  <object id="286" x="1145.17" y="844.704"/>
  <object id="287" x="1162.18" y="854.152"/>
  <object id="288" x="1177.29" y="871.16"/>
  <object id="289" x="1182.96" y="895.726"/>
  <object id="290" x="1181.07" y="914.623"/>
  <object id="291" x="1164.07" y="942.969"/>
  <object id="292" x="1069.58" y="814.468"/>
  <object id="293" x="1067.69" y="805.02"/>
  <object id="294" x="1062.02" y="793.681"/>
  <object id="295" x="1052.57" y="786.122"/>
  <object id="296" x="1041.23" y="784.233"/>
  <object id="297" x="1031.79" y="780.453"/>
  <object id="298" x="1018.56" y="778.564"/>
  <object id="299" x="1009.11" y="778.564"/>
  <object id="300" x="997.771" y="778.564"/>
  <object id="301" x="986.432" y="782.343"/>
  <object id="302" x="980.763" y="795.571"/>
  <object id="303" x="969.425" y="805.02"/>
  <object id="304" x="958.087" y="808.799"/>
  <object id="305" x="948.638" y="812.578"/>
  <object id="306" x="937.3" y="810.689"/>
  <object id="307" x="925.961" y="810.689"/>
  <object id="308" x="941.079" y="812.578"/>
  <object id="309" x="918.403" y="810.689"/>
  <object id="310" x="901.395" y="818.248"/>
  <object id="311" x="901.395" y="840.924"/>
  <object id="312" x="975.094" y="835.255" width="69.9195" height="34.0149"/>
  <object id="313" x="1045.01" y="869.27"/>
  <object id="314" x="1018.56" y="912.733"/>
  <object id="315" x="1011" y="916.513" width="5.66915" height="15.1177"/>
  <object id="316" x="999.66" y="959.976" height="7.55887"/>
  <object id="317" x="1060.13" y="961.866" height="1.88972"/>
  <object id="318" x="1054.46" y="948.638"/>
  <object id="319" x="1043.12" y="929.741" width="1.88972" height="3.77943"/>
  <object id="320" x="922.182" y="825.806" width="217.317" height="105.824"/>
  <object id="321" x="1130.05" y="857.932" width="45.3532" height="75.5887"/>
  <object id="322" x="888.167" y="831.476" width="45.3532" height="64.2504"/>
  <object id="323" x="920.292" y="823.917"/>
  <object id="324" x="999.66" y="801.24"/>
  <object id="325" x="1014.78" y="797.461"/>
  <object id="326" x="1033.68" y="803.13"/>
  <object id="327" x="1050.68" y="805.02" width="1.88972"/>
  <object id="328" x="1052.57" y="820.137"/>
  <object id="329" x="1069.58" y="825.806"/>
  <object id="330" x="1039.34" y="818.248"/>
  <object id="331" x="1020.45" y="814.468"/>
  <object id="332" x="1005.33" y="816.358"/>
  <object id="333" x="992.102" y="822.027"/>
  <object id="334" x="986.432" y="814.468"/>
  <object id="335" x="963.756" y="820.137"/>
  <object id="336" x="952.418" y="820.137"/>
  <object id="337" x="950.528" y="833.365"/>
  <object id="338" x="941.079" y="920.292" width="207.869" height="66.1401"/>
  <object id="339" x="948.638" y="967.535" width="194.641" height="96.3756"/>
  <object id="340" x="954.307" y="1029.9" width="177.633" height="47.2429"/>
  <object id="341" x="990.212" y="1052.57" width="119.052" height="47.2429"/>
  <object id="342" x="939.189" y="971.315" width="17.0075" height="102.045"/>
  <object id="343" x="927.851" y="971.315" width="7.55887" height="119.052"/>
  <object id="344" x="867.38" y="1039.34" width="103.934" height="22.6766"/>
  <object id="345" x="876.829" y="1035.57" width="81.2578" height="41.5738"/>
  <object id="346" x="886.277" y="1011" width="71.8093" height="39.6841"/>
  <object id="347" x="876.829" y="1018.56"/>
  <object id="348" x="876.829" y="1037.45"/>
  <object id="349" x="863.601" y="1046.9" height="1.88972"/>
  <object id="350" x="884.388" y="1045.01"/>
  <object id="351" x="899.505" y="1024.23" width="1.88972" height="1.88972"/>
  <object id="352" x="893.836" y="1018.56"/>
  <object id="353" x="899.505" y="1007.22"/>
  <object id="354" x="912.733" y="1009.11"/>
  <object id="355" x="925.961" y="1011"/>
  <object id="356" x="922.182" y="999.66"/>
  <object id="357" x="948.638" y="984.543"/>
  <object id="358" x="933.52" y="986.432"/>
  <object id="359" x="918.403" y="990.212"/>
  <object id="360" x="918.403" y="1003.44"/>
  <object id="361" x="910.844" y="1007.22"/>
  <object id="362" x="939.189" y="1012.89" width="1.88972"/>
  <object id="363" x="939.189" y="1022.34"/>
  <object id="364" x="935.41" y="1024.23"/>
  <object id="365" x="914.623" y="1024.23"/>
  <object id="366" x="890.057" y="1024.23" width="24.5663" height="1.88972"/>
  <object id="367" x="886.277" y="1026.12" width="3.77943" height="1.88972"/>
  <object id="368" x="880.608" y="1031.79" width="1.88972"/>
  <object id="369" x="878.719" y="1037.45" width="1.88972" height="3.77943"/>
  <object id="370" x="925.961" y="1052.57"/>
  <object id="371" x="918.403" y="1045.01" width="5.66915" height="5.66915"/>
  <object id="372" x="903.285" y="1033.68"/>
  <object id="373" x="897.616" y="1045.01" height="3.77943"/>
  <object id="374" x="901.395" y="1058.24" width="3.77943" height="5.66915"/>
  <object id="375" x="918.403" y="1071.47" width="7.55887"/>
  <object id="376" x="999.66" y="1054.46"/>
  <object id="377" x="1046.9" y="1048.79" width="1.88972"/>
  <object id="378" x="1043.12" y="1056.35" width="22.6766"/>
  <object id="379" x="1118.71" y="1045.01" height="1.88972"/>
  <object id="380" x="1120.6" y="1031.79" height="3.77943"/>
  <object id="381" x="1084.7" y="1009.11" width="30.2355" height="7.55887"/>
  <object id="382" x="1001.55" y="984.543" width="3.77943" height="7.55887"/>
  <object id="383" x="1088.48" y="967.535"/>
  <object id="384" x="1116.82" y="933.52" width="3.77943" height="3.77943"/>
  <object id="385" x="1116.82" y="912.733" width="3.77943" height="5.66915"/>
  <object id="386" x="1022.34" y="848.483"/>
 </objectgroup>
 <objectgroup id="3" name="Vatcan">
  <object id="388" x="181.413" y="3.77943" width="39.6841" height="39.6841"/>
  <object id="389" x="151.177" y="20.7869" width="35.9046" height="20.7869"/>
  <object id="390" x="41.5738" y="18.8972" width="52.9121" height="43.4635"/>
  <object id="391" x="37.7943" y="54.8018"/>
  <object id="392" x="37.7943" y="41.5738"/>
  <object id="393" x="37.7943" y="34.0149"/>
  <object id="394" x="45.3532" y="22.6766"/>
  <object id="395" x="69.9195" y="20.7869" width="1.88972" height="1.88972"/>
  <object id="396" x="75.5887" y="18.8972"/>
  <object id="397" x="379.833" y="41.5738"/>
  <object id="398" x="398.73" y="41.5738"/>
  <object id="399" x="391.171" y="30.2355"/>
  <object id="400" x="398.73" y="56.6915" height="1.88972"/>
  <object id="401" x="453.532" y="62.3607" width="3.77943"/>
  <object id="402" x="436.525" y="58.5812"/>
  <object id="403" x="442.194" y="54.8018"/>
  <object id="404" x="442.194" y="41.5738"/>
  <object id="405" x="462.981" y="51.0224"/>
  <object id="406" x="449.753" y="43.4635"/>
  <object id="407" x="459.201" y="37.7943"/>
  <object id="408" x="470.54" y="26.456"/>
  <object id="409" x="483.768" y="37.7943" height="1.88972"/>
  <object id="410" x="491.326" y="35.9046"/>
  <object id="411" x="479.988" y="49.1326"/>
  <object id="412" x="461.091" y="54.8018"/>
  <object id="413" x="464.87" y="66.1401"/>
  <object id="414" x="451.642" y="69.9195"/>
  <object id="415" x="470.54" y="73.699" width="1.88972"/>
  <object id="416" x="478.098" y="81.2578"/>
  <object id="417" x="500.775" y="69.9195" width="1.88972"/>
  <object id="418" x="485.657" y="69.9195"/>
  <object id="419" x="517.783" y="68.0298"/>
  <object id="420" x="506.444" y="73.699"/>
  <object id="421" x="479.988" y="62.3607"/>
  <object id="422" x="474.319" y="51.0224"/>
  <object id="423" x="489.437" y="54.8018" width="1.88972"/>
  <object id="424" x="504.555" y="58.5812"/>
  <object id="425" x="517.783" y="58.5812"/>
  <object id="426" x="508.334" y="47.2429"/>
  <object id="427" x="508.334" y="43.4635"/>
  <object id="428" x="504.555" y="37.7943"/>
  <object id="429" x="504.555" y="37.7943"/>
  <object id="430" x="495.106" y="26.456"/>
  <object id="431" x="483.768" y="26.456"/>
  <object id="432" x="472.429" y="28.3458"/>
  <object id="433" x="479.988" y="51.0224" width="3.77943" height="3.77943"/>
  <object id="434" x="491.326" y="66.1401"/>
  <object id="435" x="493.216" y="68.0298"/>
  <object id="436" x="491.326" y="73.699"/>
  <object id="437" x="500.775" y="75.5887"/>
  <object id="438" x="519.672" y="75.5887" width="1.88972"/>
  <object id="439" x="663.291" y="11.3383"/>
  <object id="440" x="640.614" y="30.2355"/>
  <object id="441" x="636.835" y="11.3383"/>
  <object id="442" x="619.827" y="15.1177" width="3.77943"/>
  <object id="443" x="623.607" y="18.8972"/>
  <object id="444" x="627.386" y="30.2355" width="3.77943"/>
  <object id="445" x="616.048" y="34.0149"/>
  <object id="446" x="616.048" y="22.6766"/>
  <object id="447" x="761.556" y="151.177" width="1.88972"/>
  <object id="448" x="789.902" y="151.177" width="1.88972"/>
  <object id="449" x="772.894" y="132.28" width="5.66915"/>
  <object id="450" x="753.997" y="130.39" width="35.9046" height="39.6841"/>
  <object id="451" x="721.872" y="154.957" width="35.9046" height="30.2355"/>
  <object id="452" x="839.034" y="35.9046" width="56.6915" height="58.5812"/>
  <object id="453" x="865.491" y="24.5663"/>
  <object id="454" x="856.042" y="28.3458"/>
  <object id="455" x="891.947" y="88.8167"/>
  <object id="456" x="891.947" y="90.7064"/>
  <object id="457" x="840.924" y="81.2578"/>
  <object id="458" x="844.704" y="60.471"/>
  <object id="459" x="583.923" y="75.5887"/>
  <object id="460" x="589.592" y="92.5961"/>
  <object id="461" x="561.246" y="98.2653" height="1.88972"/>
  <object id="462" x="574.474" y="100.155"/>
  <object id="463" x="555.577" y="103.934"/>
  <object id="464" x="563.136" y="83.1476"/>
  <object id="465" x="576.364" y="115.273"/>
  <object id="466" x="753.997" y="32.1252"/>
  <object id="467" x="771.005" y="47.2429"/>
  <object id="468" x="761.556" y="64.2504"/>
  <object id="469" x="752.107" y="49.1326"/>
  <object id="470" x="735.1" y="60.471"/>
  <object id="471" x="719.982" y="73.699"/>
  <object id="472" x="697.306" y="58.5812"/>
  <object id="473" x="706.754" y="71.8093"/>
  <object id="474" x="716.203" y="54.8018"/>
  <object id="475" x="699.195" y="49.1326"/>
  <object id="476" x="706.754" y="41.5738"/>
  <object id="477" x="714.313" y="37.7943" width="1.88972"/>
  <object id="478" x="723.762" y="34.0149"/>
  <object id="479" x="725.651" y="28.3458"/>
  <object id="480" x="742.659" y="30.2355"/>
  <object id="481" x="746.438" y="37.7943"/>
  <object id="482" x="736.99" y="41.5738"/>
  <object id="483" x="736.99" y="41.5738"/>
  <object id="484" x="710.534" y="47.2429"/>
  <object id="485" x="716.203" y="62.3607"/>
  <object id="486" x="725.651" y="62.3607"/>
  <object id="487" x="740.769" y="52.9121"/>
  <object id="488" x="757.777" y="51.0224"/>
  <object id="489" x="774.784" y="56.6915" height="1.88972"/>
  <object id="490" x="1060.13" y="20.7869"/>
  <object id="491" x="1073.36" y="30.2355"/>
  <object id="492" x="1077.14" y="17.0075"/>
  <object id="493" x="1139.5" y="11.3383"/>
  <object id="495" x="1150.84" y="13.228"/>
  <object id="496" x="1171.62" y="26.456"/>
  <object id="497" x="1207.53" y="24.5663"/>
  <object id="498" x="1226.43" y="34.0149"/>
  <object id="499" x="1205.64" y="20.7869" width="1.88972"/>
  <object id="500" x="1190.52" y="20.7869"/>
  <object id="501" x="1186.74" y="37.7943"/>
  <object id="502" x="1165.96" y="51.0224"/>
  <object id="503" x="1162.18" y="41.5738"/>
  <object id="504" x="1162.18" y="58.5812"/>
  <object id="505" x="1158.4" y="66.1401"/>
  <object id="506" x="1160.29" y="71.8093"/>
  <object id="507" x="1175.4" y="83.1476" width="3.77943" height="1.88972"/>
  <object id="508" x="1181.07" y="96.3756"/>
  <object id="509" x="1164.07" y="77.4784"/>
  <object id="510" x="1173.51" y="77.4784"/>
  <object id="511" x="1175.4" y="69.9195"/>
  <object id="512" x="1175.4" y="69.9195"/>
  <object id="513" x="1175.4" y="66.1401"/>
  <object id="514" x="1171.62" y="56.6915"/>
  <object id="515" x="1171.62" y="56.6915"/>
  <object id="516" x="1177.29" y="52.9121" width="5.66915"/>
  <object id="517" x="1184.85" y="52.9121" width="1.88972"/>
  <object id="518" x="1186.74" y="51.0224" width="5.66915" height="1.88972"/>
  <object id="519" x="1213.2" y="51.0224" width="5.66915"/>
  <object id="520" x="1218.87" y="51.0224"/>
  <object id="521" x="1220.76" y="51.0224" width="3.77943"/>
  <object id="522" x="1230.21" y="45.3532"/>
  <object id="523" x="1196.19" y="32.1252"/>
  <object id="524" x="1190.52" y="34.0149" width="1.88972" height="11.3383"/>
  <object id="525" x="1169.73" y="60.471"/>
  <object id="526" x="1179.18" y="71.8093" width="3.77943"/>
  <object id="527" x="1184.85" y="71.8093"/>
  <object id="528" x="1188.63" y="86.927"/>
  <object id="529" x="1192.41" y="88.8167" width="5.66915" height="1.88972"/>
  <object id="530" x="1198.08" y="90.7064"/>
  <object id="531" x="1205.64" y="90.7064"/>
  <object id="532" x="1173.51" y="32.1252" width="69.9195" height="60.471"/>
  <object id="533" x="1215.09" y="158.736" width="28.3458" height="24.5663"/>
  <object id="534" x="1243.43" y="183.303"/>
  <object id="535" x="946.748" y="171.964" width="43.4635" height="35.9046"/>
  <object id="536" x="992.102" y="100.155" width="81.2578" height="64.2504"/>
  <object id="537" x="1077.14" y="160.626"/>
  <object id="538" x="1094.15" y="154.957"/>
  <object id="539" x="1080.92" y="139.839" width="1.88972" height="1.88972"/>
  <object id="540" x="1077.14" y="139.839"/>
  <object id="541" x="1237.76" y="315.583"/>
  <object id="542" x="1199.97" y="377.943" width="41.5738" height="43.4635"/>
  <object id="543" x="856.042" y="362.826" width="1.88972" height="1.88972"/>
  <object id="544" x="859.821" y="364.715"/>
  <object id="545" x="822.027" y="306.134" width="1.88972"/>
  <object id="546" x="823.917" y="296.686"/>
  <object id="547" x="878.719" y="292.906"/>
  <object id="548" x="869.27" y="277.788" width="1.88972" height="1.88972"/>
  <object id="549" x="863.601" y="274.009" width="1.88972"/>
  <object id="550" x="873.049" y="279.678"/>
  <object id="551" x="854.152" y="281.568" width="1.88972"/>
  <object id="552" x="863.601" y="272.119"/>
  <object id="553" x="852.262" y="300.465" width="1.88972"/>
  <object id="554" x="861.711" y="289.127"/>
  <object id="555" x="854.152" y="296.686"/>
  <object id="556" x="844.704" y="270.23" height="1.88972"/>
  <object id="557" x="835.255" y="257.002" width="1.88972" height="1.88972"/>
  <object id="558" x="822.027" y="262.671"/>
  <object id="559" x="846.593" y="272.119"/>
  <object id="560" x="823.917" y="275.899"/>
  <object id="561" x="835.255" y="251.332" width="1.88972"/>
  <object id="562" x="842.814" y="243.774" width="5.66915" height="1.88972"/>
  <object id="563" x="825.806" y="249.443"/>
  <object id="564" x="506.444" y="232.435" width="1.88972" height="1.88972"/>
  <object id="565" x="500.775" y="232.435"/>
  <object id="566" x="510.224" y="162.516"/>
  <object id="567" x="540.459" y="219.207" height="3.77943"/>
  <object id="568" x="540.459" y="232.435" height="3.77943"/>
  <object id="569" x="549.908" y="224.876" height="3.77943"/>
  <object id="570" x="531.011" y="230.546" width="1.88972" height="1.88972"/>
  <object id="571" x="534.79" y="228.656"/>
  <object id="572" x="540.459" y="205.979"/>
  <object id="573" x="529.121" y="213.538"/>
  <object id="574" x="546.128" y="219.207"/>
  <object id="575" x="377.943" y="158.736" width="43.4635" height="47.2429"/>
  <object id="576" x="421.407" y="141.729"/>
  <object id="577" x="404.399" y="151.177"/>
  <object id="578" x="391.171" y="156.847"/>
  <object id="579" x="372.274" y="170.075"/>
  <object id="580" x="368.495" y="196.531"/>
  <object id="581" x="430.856" y="177.633"/>
  <object id="582" x="428.966" y="160.626"/>
  <object id="583" x="417.628" y="160.626"/>
  <object id="584" x="389.282" y="170.075"/>
  <object id="585" x="389.282" y="188.972"/>
  <object id="586" x="430.856" y="194.641"/>
  <object id="587" x="438.414" y="168.185"/>
  <object id="588" x="438.414" y="151.177"/>
  <object id="589" x="451.642" y="179.523"/>
  <object id="590" x="459.201" y="190.861"/>
  <object id="591" x="468.65" y="185.192"/>
  <object id="592" x="455.422" y="170.075"/>
  <object id="593" x="440.304" y="194.641"/>
  <object id="594" x="478.098" y="224.876" height="3.77943"/>
  <object id="595" x="464.87" y="236.215" width="1.88972" height="3.77943"/>
  <object id="596" x="468.65" y="226.766" width="1.88972" height="1.88972"/>
  <object id="597" x="466.76" y="236.215"/>
  <object id="598" x="481.878" y="226.766"/>
  <object id="599" x="15.1177" y="109.604"/>
  <object id="600" x="54.8018" y="171.964"/>
  <object id="601" x="984.543" y="41.5738"/>
  <object id="602" x="1009.11" y="45.3532"/>
  <object id="603" x="1003.44" y="32.1252"/>
  <object id="604" x="988.322" y="28.3458"/>
  <object id="605" x="86.927" y="294.796" width="22.6766" height="32.1252"/>
  <object id="606" x="86.927" y="311.803"/>
  <object id="607" x="98.2653" y="296.686"/>
  <object id="608" x="113.383" y="315.583"/>
  <object id="609" x="11.3383" y="351.487" width="28.3458" height="32.1252"/>
  <object id="610" x="410.069" y="309.914" width="26.456" height="18.8972"/>
  <object id="611" x="302.355" y="291.016" width="52.9121" height="39.6841"/>
  <object id="612" x="334.48" y="279.678"/>
  <object id="613" x="308.024" y="283.458"/>
  <object id="614" x="302.355" y="302.355"/>
  <object id="615" x="351.487" y="300.465"/>
  <object id="616" x="340.149" y="291.016"/>
  <object id="617" x="217.317" y="326.921" width="35.9046" height="37.7943"/>
  <object id="618" x="262.671" y="351.487"/>
  <object id="619" x="260.781" y="330.701"/>
  <object id="620" x="215.428" y="334.48"/>
  <object id="621" x="217.317" y="342.039"/>
  <object id="622" x="362.826" y="385.502" width="49.1326" height="52.9121"/>
  <object id="623" x="359.046" y="427.076"/>
  <object id="624" x="376.054" y="376.054"/>
  <object id="625" x="393.061" y="379.833"/>
  <object id="626" x="204.089" y="459.201"/>
  <object id="627" x="300.465" y="493.216"/>
  <object id="628" x="236.215" y="548.018"/>
  <object id="629" x="175.744" y="487.547"/>
  <object id="630" x="173.854" y="510.224"/>
  <object id="631" x="187.082" y="508.334"/>
  <object id="632" x="200.31" y="508.334" width="1.88972"/>
  <object id="633" x="190.861" y="487.547"/>
  <object id="634" x="205.979" y="493.216"/>
  <object id="635" x="215.428" y="510.224"/>
  <object id="636" x="196.531" y="508.334"/>
  <object id="637" x="56.6915" y="438.414"/>
  <object id="638" x="39.6841" y="438.414"/>
  <object id="639" x="32.1252" y="430.856"/>
  <object id="640" x="20.7869" y="430.856"/>
  <object id="641" x="22.6766" y="447.863"/>
  <object id="642" x="22.6766" y="459.201"/>
  <object id="643" x="43.4635" y="457.312"/>
  <object id="644" x="15.1177" y="461.091"/>
  <object id="645" x="897.616" y="445.973"/>
  <object id="646" x="876.829" y="436.525"/>
  <object id="647" x="907.064" y="457.312"/>
  <object id="648" x="918.403" y="466.76"/>
  <object id="649" x="905.175" y="472.429"/>
  <object id="650" x="852.262" y="461.091"/>
  <object id="651" x="840.924" y="466.76"/>
  <object id="652" x="829.586" y="479.988" height="1.88972"/>
  <object id="653" x="833.365" y="478.098"/>
  <object id="654" x="833.365" y="493.216"/>
  <object id="655" x="833.365" y="506.444"/>
  <object id="656" x="842.814" y="504.555"/>
  <object id="657" x="852.262" y="506.444"/>
  <object id="658" x="857.932" y="498.885"/>
  <object id="659" x="854.152" y="491.326"/>
  <object id="660" x="850.373" y="485.657"/>
  <object id="661" x="857.932" y="481.878"/>
  <object id="662" x="867.38" y="491.326"/>
  <object id="663" x="865.491" y="474.319"/>
  <object id="664" x="126.611" y="568.805"/>
  <object id="665" x="117.162" y="555.577"/>
  <object id="666" x="115.273" y="572.584"/>
  <object id="667" x="83.1476" y="566.915"/>
  <object id="668" x="86.927" y="557.467"/>
  <object id="669" x="88.8167" y="549.908"/>
  <object id="670" x="88.8167" y="540.459"/>
  <object id="671" x="85.0373" y="532.9"/>
  <object id="672" x="71.8093" y="525.341"/>
  <object id="673" x="68.0298" y="529.121"/>
  <object id="674" x="64.2504" y="540.459"/>
  <object id="675" x="62.3607" y="548.018"/>
  <object id="676" x="68.0298" y="553.687"/>
  <object id="677" x="66.1401" y="555.577"/>
  <object id="678" x="71.8093" y="565.025"/>
  <object id="679" x="60.471" y="561.246"/>
  <object id="680" x="105.824" y="682.188"/>
  <object id="681" x="90.7064" y="695.416"/>
  <object id="682" x="86.927" y="684.078"/>
  <object id="683" x="77.4784" y="689.747"/>
  <object id="684" x="69.9195" y="672.739"/>
  <object id="685" x="60.471" y="665.18"/>
  <object id="686" x="62.3607" y="657.622"/>
  <object id="687" x="73.699" y="646.283"/>
  <object id="688" x="64.2504" y="650.063"/>
  <object id="689" x="79.3681" y="651.952"/>
  <object id="690" x="90.7064" y="655.732"/>
  <object id="691" x="94.4859" y="663.291"/>
  <object id="692" x="83.1476" y="676.519"/>
  <object id="693" x="77.4784" y="668.96"/>
  <object id="694" x="81.2578" y="667.07"/>
  <object id="695" x="92.5961" y="667.07"/>
  <object id="696" x="83.1476" y="653.842"/>
  <object id="697" x="41.5738" y="755.887"/>
  <object id="698" x="26.456" y="774.784"/>
  <object id="699" x="18.8972" y="788.012"/>
  <object id="700" x="11.3383" y="778.564"/>
  <object id="701" x="7.55887" y="769.115"/>
  <object id="702" x="18.8972" y="769.115"/>
  <object id="703" x="18.8972" y="767.225"/>
  <object id="704" x="18.8972" y="763.446"/>
  <object id="705" x="15.1177" y="757.777"/>
  <object id="706" x="15.1177" y="753.997"/>
  <object id="707" x="13.228" y="723.762"/>
  <object id="708" x="170.075" y="680.298" width="52.9121" height="45.3532"/>
  <object id="709" x="236.215" y="718.093"/>
  <object id="710" x="236.215" y="697.306"/>
  <object id="711" x="234.325" y="691.637"/>
  <object id="712" x="217.317" y="680.298"/>
  <object id="713" x="205.979" y="670.85"/>
  <object id="714" x="198.42" y="665.18"/>
  <object id="715" x="188.972" y="674.629"/>
  <object id="716" x="175.744" y="680.298"/>
  <object id="717" x="164.405" y="685.967"/>
  <object id="718" x="156.847" y="693.526"/>
  <object id="719" x="160.626" y="708.644"/>
  <object id="720" x="385.502" y="763.446"/>
  <object id="721" x="400.62" y="772.894"/>
  <object id="722" x="398.73" y="753.997"/>
  <object id="723" x="415.738" y="759.666"/>
  <object id="724" x="428.966" y="750.218"/>
  <object id="725" x="432.745" y="767.225"/>
  <object id="726" x="421.407" y="774.784"/>
  <object id="727" x="447.863" y="763.446"/>
  <object id="728" x="438.414" y="740.769"/>
  <object id="729" x="449.753" y="753.997"/>
  <object id="730" x="833.365" y="687.857"/>
  <object id="731" x="846.593" y="691.637"/>
  <object id="732" x="846.593" y="678.409"/>
  <object id="733" x="859.821" y="682.188"/>
  <object id="734" x="857.932" y="680.298"/>
  <object id="735" x="1188.63" y="470.54"/>
  <object id="736" x="1179.18" y="481.878"/>
  <object id="737" x="1179.18" y="495.106" width="41.5738" height="43.4635"/>
  <object id="738" x="1194.3" y="483.768"/>
  <object id="739" x="1211.31" y="485.657"/>
  <object id="740" x="1194.3" y="485.657"/>
  <object id="741" x="1220.76" y="498.885"/>
  <object id="742" x="1222.65" y="510.224"/>
  <object id="743" x="1179.18" y="502.665"/>
  <object id="744" x="1167.85" y="506.444"/>
  <object id="745" x="1162.18" y="514.003"/>
  <object id="746" x="1181.07" y="519.672"/>
  <object id="747" x="1177.29" y="502.665"/>
  <object id="748" x="1171.62" y="496.996"/>
  <object id="749" x="1218.87" y="557.467"/>
  <object id="750" x="1139.5" y="568.805"/>
  <object id="751" x="1145.17" y="559.356"/>
  <object id="752" x="1175.4" y="600.93"/>
  <object id="753" x="1160.29" y="589.592" width="1.88972" height="11.3383"/>
  <object id="754" x="1160.29" y="593.371"/>
  <object id="755" x="1152.73" y="612.268" height="1.88972"/>
  <object id="756" x="1145.17" y="606.599"/>
  <object id="757" x="1052.57" y="600.93"/>
  <object id="758" x="1003.44" y="576.364" width="49.1326" height="37.7943"/>
  <object id="759" x="1003.44" y="587.702"/>
  <object id="760" x="995.881" y="602.82"/>
  <object id="761" x="1016.67" y="572.584"/>
  <object id="762" x="1035.57" y="578.253"/>
  <object id="763" x="1209.42" y="693.526"/>
  <object id="764" x="1222.65" y="697.306"/>
  <object id="765" x="1216.98" y="685.967"/>
  <object id="766" x="1192.41" y="727.541"/>
  <object id="767" x="1186.74" y="712.423"/>
  <object id="768" x="1177.29" y="704.865"/>
  <object id="769" x="1167.85" y="718.093"/>
  <object id="770" x="1184.85" y="731.321"/>
  <object id="771" x="1173.51" y="742.659"/>
  <object id="772" x="1158.4" y="735.1"/>
  <object id="773" x="1177.29" y="753.997"/>
  <object id="774" x="1188.63" y="753.997"/>
  <object id="775" x="1194.3" y="742.659"/>
  <object id="776" x="1194.3" y="736.99"/>
  <object id="777" x="1177.29" y="725.651"/>
  <object id="778" x="1203.75" y="740.769" width="39.6841" height="45.3532"/>
  <object id="779" x="1228.32" y="733.21"/>
  <object id="780" x="884.388" y="733.21"/>
  <object id="781" x="941.079" y="757.777"/>
  <object id="782" x="937.3" y="716.203"/>
  <object id="783" x="910.844" y="712.423"/>
  <object id="784" x="925.961" y="718.093"/>
  <object id="785" x="929.741" y="695.416"/>
  <object id="786" x="924.072" y="702.975"/>
  <object id="787" x="942.969" y="712.423"/>
  <object id="788" x="908.954" y="731.321"/>
  <object id="789" x="927.851" y="736.99"/>
  <object id="790" x="929.741" y="736.99"/>
  <object id="791" x="937.3" y="733.21"/>
  <object id="792" x="950.528" y="721.872"/>
  <object id="793" x="935.41" y="714.313"/>
  <object id="794" x="914.623" y="716.203"/>
  <object id="795" x="927.851" y="702.975"/>
  <object id="796" x="812.578" y="823.917"/>
  <object id="797" x="803.13" y="816.358"/>
  <object id="798" x="795.571" y="820.137"/>
  <object id="799" x="793.681" y="835.255"/>
  <object id="800" x="803.13" y="837.145"/>
  <object id="801" x="498.885" y="886.277"/>
  <object id="802" x="514.003" y="888.167"/>
  <object id="803" x="523.452" y="888.167"/>
  <object id="804" x="540.459" y="884.388"/>
  <object id="805" x="542.349" y="878.719"/>
  <object id="806" x="532.9" y="871.16"/>
  <object id="807" x="525.341" y="871.16"/>
  <object id="808" x="527.231" y="856.042" width="1.88972" height="1.88972"/>
  <object id="809" x="531.011" y="859.821"/>
  <object id="810" x="362.826" y="907.064"/>
  <object id="811" x="345.818" y="907.064"/>
  <object id="812" x="332.59" y="912.733"/>
  <object id="813" x="321.252" y="912.733"/>
  <object id="814" x="315.583" y="908.954"/>
  <object id="815" x="308.024" y="899.505"/>
  <object id="816" x="326.921" y="895.726"/>
  <object id="817" x="343.929" y="891.947"/>
  <object id="818" x="338.259" y="884.388"/>
  <object id="819" x="326.921" y="880.608"/>
  <object id="820" x="323.142" y="874.939"/>
  <object id="821" x="323.142" y="869.27"/>
  <object id="822" x="330.701" y="865.491"/>
  <object id="823" x="334.48" y="861.711"/>
  <object id="824" x="342.039" y="867.38"/>
  <object id="825" x="342.039" y="873.049"/>
  <object id="826" x="353.377" y="886.277"/>
  <object id="827" x="355.267" y="891.947"/>
  <object id="828" x="351.487" y="878.719"/>
  <object id="829" x="772.894" y="925.961"/>
  <object id="830" x="789.902" y="959.976"/>
  <object id="831" x="782.343" y="941.079"/>
  <object id="832" x="767.225" y="948.638"/>
  <object id="833" x="753.997" y="946.748"/>
  <object id="834" x="1209.42" y="1045.01"/>
  <object id="835" x="1222.65" y="1029.9"/>
  <object id="836" x="1218.87" y="1020.45"/>
  <object id="837" x="1213.2" y="1011"/>
  <object id="838" x="1205.64" y="1011"/>
  <object id="839" x="1201.86" y="1024.23"/>
  <object id="840" x="1199.97" y="1031.79"/>
  <object id="841" x="1005.33" y="1186.74"/>
  <object id="842" x="1026.12" y="1215.09"/>
  <object id="843" x="1011" y="1209.42"/>
  <object id="844" x="1014.78" y="1224.54"/>
  <object id="845" x="1003.44" y="1226.43"/>
  <object id="846" x="999.66" y="1222.65"/>
  <object id="847" x="999.66" y="1205.64"/>
  <object id="848" x="973.204" y="1201.86"/>
  <object id="849" x="961.866" y="1196.19"/>
  <object id="850" x="1096.04" y="1160.29" width="81.2578" height="49.1326"/>
  <object id="851" x="1090.37" y="1181.07"/>
  <object id="852" x="1096.04" y="1167.85"/>
  <object id="853" x="1103.59" y="1162.18"/>
  <object id="854" x="1114.93" y="1154.62"/>
  <object id="855" x="1141.39" y="1158.4"/>
  <object id="856" x="1137.61" y="1147.06"/>
  <object id="857" x="1141.39" y="1133.83"/>
  <object id="858" x="1141.39" y="1148.95"/>
  <object id="859" x="1154.62" y="1141.39"/>
  <object id="860" x="1162.18" y="1137.61"/>
  <object id="861" x="1169.73" y="1131.94"/>
  <object id="862" x="1171.62" y="1143.28"/>
  <object id="863" x="1154.62" y="1150.84"/>
  <object id="864" x="1160.29" y="1156.51"/>
  <object id="865" x="1173.51" y="1156.51"/>
  <object id="866" x="1179.18" y="1148.95"/>
  <object id="867" x="878.719" y="1211.31"/>
  <object id="868" x="871.16" y="1198.08"/>
  <object id="869" x="856.042" y="1190.52"/>
  <object id="870" x="846.593" y="1203.75"/>
  <object id="871" x="857.932" y="1203.75"/>
  <object id="872" x="646.283" y="1222.65"/>
  <object id="873" x="653.842" y="1211.31"/>
  <object id="874" x="555.577" y="1220.76"/>
  <object id="875" x="487.547" y="1175.4"/>
  <object id="876" x="489.437" y="1162.18"/>
  <object id="877" x="495.106" y="1154.62"/>
  <object id="878" x="504.555" y="1165.96"/>
  <object id="879" x="506.444" y="1158.4"/>
  <object id="880" x="506.444" y="1147.06"/>
  <object id="881" x="519.672" y="1147.06"/>
  <object id="882" x="519.672" y="1160.29"/>
  <object id="883" x="536.68" y="1162.18"/>
  <object id="884" x="542.349" y="1145.17"/>
  <object id="885" x="536.68" y="1135.72"/>
  <object id="886" x="538.569" y="1158.4"/>
  <object id="887" x="81.2578" y="939.189"/>
  <object id="888" x="73.699" y="931.631"/>
  <object id="889" x="71.8093" y="944.859"/>
  <object id="890" x="66.1401" y="944.859"/>
  <object id="891" x="54.8018" y="944.859"/>
  <object id="892" x="49.1326" y="937.3"/>
  <object id="893" x="60.471" y="935.41"/>
  <object id="894" x="64.2504" y="1222.65"/>
  <object id="895" x="54.8018" y="1224.54"/>
  <object id="896" x="54.8018" y="1215.09"/>
  <object id="897" x="62.3607" y="1220.76"/>
  <object id="898" x="47.2429" y="1211.31"/>
  <object id="899" x="37.7943" y="1211.31"/>
  <object id="900" x="37.7943" y="1207.53"/>
  <object id="901" x="24.5663" y="1198.08"/>
  <object id="902" x="26.456" y="1190.52"/>
  <object id="903" x="32.1252" y="1194.3" width="1.88972"/>
  <object id="904" x="37.7943" y="1198.08"/>
  <object id="905" x="45.3532" y="1205.64"/>
  <object id="906" x="88.8167" y="1069.58"/>
  <object id="907" x="100.155" y="1075.25"/>
  <object id="908" x="105.824" y="1065.8"/>
  <object id="909" x="113.383" y="1080.92"/>
  <object id="910" x="96.3756" y="1103.59"/>
  <object id="911" x="86.927" y="1082.81" width="49.1326" height="39.6841"/>
  <object id="912" x="130.39" y="1128.16"/>
  <object id="913" x="115.273" y="1124.38"/>
  <object id="914" x="137.949" y="1105.48"/>
  <object id="915" x="137.949" y="1097.93"/>
  <object id="916" x="85.0373" y="1082.81"/>
  <object id="917" x="154.957" y="971.315" width="35.9046" height="32.1252"/>
  <object id="918" x="190.861" y="1003.44"/>
  <object id="919" x="154.957" y="999.66"/>
  <object id="920" x="149.288" y="988.322"/>
  <object id="921" x="154.957" y="978.874"/>
  <object id="922" x="154.957" y="971.315"/>
  <object id="923" x="198.42" y="997.771"/>
  <object id="924" x="171.964" y="973.204"/>
  <object id="925" x="272.119" y="1007.22"/>
  <object id="926" x="266.45" y="1020.45"/>
  <object id="927" x="251.332" y="1029.9" height="1.88972"/>
  <object id="928" x="260.781" y="1037.45"/>
  <object id="929" x="251.332" y="1029.9"/>
  <object id="930" x="262.671" y="1048.79"/>
  <object id="931" x="285.347" y="1041.23"/>
  <object id="932" x="285.347" y="1037.45"/>
  <object id="933" x="272.119" y="1031.79"/>
  <object id="934" x="281.568" y="1031.79"/>
  <object id="935" x="296.686" y="1031.79"/>
  <object id="936" x="300.465" y="1035.57"/>
  <object id="937" x="300.465" y="1033.68"/>
  <object id="938" x="296.686" y="1028.01"/>
  <object id="939" x="289.127" y="1022.34"/>
  <object id="940" x="462.981" y="1054.46"/>
  <object id="941" x="483.768" y="1041.23"/>
  <object id="942" x="470.54" y="1058.24"/>
  <object id="943" x="478.098" y="1058.24" width="3.77943"/>
  <object id="944" x="493.216" y="1056.35"/>
  <object id="945" x="493.216" y="1054.46"/>
  <object id="946" x="508.334" y="1043.12"/>
  <object id="947" x="514.003" y="1039.34"/>
  <object id="948" x="521.562" y="1029.9"/>
  <object id="949" x="521.562" y="1028.01"/>
  <object id="950" x="514.003" y="1016.67"/>
  <object id="951" x="508.334" y="1012.89"/>
  <object id="952" x="495.106" y="1020.45"/>
  <object id="953" x="491.326" y="1026.12" height="5.66915"/>
  <object id="954" x="487.547" y="1039.34" height="1.88972"/>
  <object id="955" x="476.209" y="1050.68" width="1.88972" height="7.55887"/>
  <object id="956" x="470.54" y="1060.13"/>
  <object id="957" x="462.981" y="1052.57"/>
  <object id="958" x="478.098" y="1058.24" width="1.88972" height="1.88972"/>
  <object id="959" x="474.319" y="1052.57"/>
  <object id="960" x="479.988" y="1045.01"/>
  <object id="961" x="485.657" y="1045.01" width="13.228" height="1.88972"/>
  <object id="962" x="500.775" y="1048.79"/>
  <object id="963" x="500.775" y="1048.79"/>
  <object id="964" x="514.003" y="1043.12"/>
  <object id="965" x="519.672" y="1043.12"/>
  <object id="966" x="514.003" y="1043.12" width="5.66915"/>
  <object id="967" x="532.9" y="1039.34"/>
  <object id="968" x="532.9" y="1039.34"/>
  <object id="969" x="525.341" y="1022.34" width="1.88972" height="1.88972"/>
  <object id="970" x="515.893" y="1014.78"/>
  <object id="971" x="506.444" y="1011"/>
  <object id="972" x="489.437" y="1028.01"/>
  <object id="973" x="326.921" y="1128.16" width="18.8972" height="35.9046"/>
  <object id="974" x="334.48" y="1128.16"/>
  <object id="975" x="330.701" y="1147.06"/>
  <object id="976" x="351.487" y="1169.73"/>
  <object id="977" x="336.37" y="1165.96"/>
  <object id="978" x="349.598" y="1148.95"/>
  <object id="979" x="347.708" y="1156.51"/>
  <object id="980" x="351.487" y="1143.28"/>
  <object id="981" x="368.495" y="1139.5"/>
  <object id="982" x="379.833" y="1145.17" width="1.88972"/>
  <object id="983" x="394.951" y="1156.51"/>
  <object id="984" x="400.62" y="1162.18"/>
  <object id="985" x="389.282" y="1158.4" width="1.88972"/>
  <object id="986" x="368.495" y="1152.73"/>
  <object id="987" x="368.495" y="1148.95" width="3.77943" height="1.88972"/>
  <object id="988" x="385.502" y="1143.28"/>
  <object id="989" x="391.171" y="1137.61"/>
  <object id="990" x="391.171" y="1135.72"/>
  <object id="991" x="393.061" y="1130.05"/>
  <object id="992" x="389.282" y="1120.6" height="3.77943"/>
  <object id="993" x="387.392" y="1118.71"/>
  <object id="994" x="379.833" y="1118.71"/>
  <object id="995" x="379.833" y="1118.71"/>
  <object id="996" x="372.274" y="1116.82" width="3.77943" height="3.77943"/>
  <object id="997" x="366.605" y="1124.38" height="5.66915"/>
  <object id="998" x="366.605" y="1130.05" height="1.88972"/>
  <object id="999" x="362.826" y="1126.27"/>
  <object id="1000" x="374.164" y="1114.93"/>
  <object id="1001" x="735.1" y="1048.79" width="58.5812" height="47.2429"/>
  <object id="1002" x="793.681" y="1096.04"/>
  <object id="1003" x="725.651" y="1092.26"/>
  <object id="1004" x="731.321" y="1082.81"/>
  <object id="1005" x="729.431" y="1075.25"/>
  <object id="1006" x="729.431" y="1065.8"/>
  <object id="1007" x="738.879" y="1058.24"/>
  <object id="1008" x="750.218" y="1052.57"/>
  <object id="1009" x="752.107" y="1046.9"/>
  <object id="1010" x="753.997" y="1043.12"/>
  <object id="1011" x="753.997" y="1037.45"/>
  <object id="1012" x="761.556" y="1041.23"/>
  <object id="1013" x="774.784" y="1045.01"/>
  <object id="1014" x="774.784" y="1045.01"/>
  <object id="1015" x="774.784" y="1031.79"/>
  <object id="1016" x="771.005" y="1058.24" width="1.88972" height="7.55887"/>
  <object id="1017" x="757.777" y="1080.92" width="3.77943" height="1.88972"/>
  <object id="1018" x="750.218" y="1086.59"/>
  <object id="1019" x="772.894" y="1067.69"/>
  <object id="1020" x="763.446" y="1069.58"/>
  <object id="1021" x="757.777" y="1073.36" height="7.55887"/>
  <object id="1022" x="776.674" y="1086.59"/>
  <object id="1023" x="776.674" y="1086.59"/>
  <object id="1024" x="772.894" y="1071.47" width="1.88972"/>
  <object id="1025" x="765.335" y="1086.59"/>
  <object id="1026" x="778.564" y="1077.14"/>
  <object id="1027" x="789.902" y="1080.92"/>
  <object id="1028" x="791.792" y="1084.7"/>
  <object id="1029" x="795.571" y="1096.04"/>
  <object id="1030" x="795.571" y="1099.82"/>
  <object id="1031" x="795.571" y="1096.04"/>
  <object id="1032" x="765.335" y="1088.48"/>
  <object id="1033" x="750.218" y="1090.37"/>
  <object id="1034" x="740.769" y="1094.15"/>
 </objectgroup>
</map>
