<?xml version="1.0" encoding="UTF-8"?>
<map version="1.10" tiledversion="1.12.1" orientation="orthogonal" renderorder="right-down" width="39" height="39" tilewidth="32" tileheight="32" infinite="0" nextlayerid="4" nextobjectid="1424">
 <tileset firstgid="1" source="D:/summer.tsx"/>
 <layer id="1" name="Tile Layer 1" width="39" height="39">
  <data encoding="csv">
1,2,3,4,5,6,7,8,9,10,11,12,13,14,15,16,17,18,19,20,21,22,23,24,25,26,27,28,29,30,31,32,33,34,35,36,37,38,39,
40,41,42,43,44,45,46,47,48,49,50,51,52,53,54,55,56,57,58,59,60,61,62,63,64,65,66,67,68,69,70,71,72,73,74,75,76,77,78,
79,80,81,82,83,84,85,86,87,88,89,90,91,92,93,94,95,96,97,98,99,100,101,102,103,104,105,106,107,108,109,110,111,112,113,114,115,116,117,
118,119,120,121,122,123,124,125,126,127,128,129,130,131,132,133,134,135,136,137,138,139,140,141,142,143,144,145,146,147,148,149,150,151,152,153,154,155,156,
157,158,159,160,161,162,163,164,165,166,167,168,169,170,171,172,173,174,175,176,177,178,179,180,181,182,183,184,185,186,187,188,189,190,191,192,193,194,195,
196,197,198,199,200,201,202,203,204,205,206,207,208,209,210,211,212,213,214,215,216,217,218,219,220,221,222,223,224,225,226,227,228,229,230,231,232,233,234,
235,236,237,238,239,240,241,242,243,244,245,246,247,248,249,250,251,252,253,254,255,256,257,258,259,260,261,262,263,264,265,266,267,268,269,270,271,272,273,
274,275,276,277,278,279,280,281,282,283,284,285,286,287,288,289,290,291,292,293,294,295,296,297,298,299,300,301,302,303,304,305,306,307,308,309,310,311,312,
313,314,315,316,317,318,319,320,321,322,323,324,325,326,327,328,329,330,331,332,333,334,335,336,337,338,339,340,341,342,343,344,345,346,347,348,349,350,351,
352,353,354,355,356,357,358,359,360,361,362,363,364,365,366,367,368,369,370,371,372,373,374,375,376,377,378,379,380,381,382,383,384,385,386,387,388,389,390,
391,392,393,394,395,396,397,398,399,400,401,402,403,404,405,406,407,408,409,410,411,412,413,414,415,416,417,418,419,420,421,422,423,424,425,426,427,428,429,
430,431,432,433,434,435,436,437,438,439,440,441,442,443,444,445,446,447,448,449,450,451,452,453,454,455,456,457,458,459,460,461,462,463,464,465,466,467,468,
469,470,471,472,473,474,475,476,477,478,479,480,481,482,483,484,485,486,487,488,489,490,491,492,493,494,495,496,497,498,499,500,501,502,503,504,505,506,507,
508,509,510,511,512,513,514,515,516,517,518,519,520,521,522,523,524,525,526,527,528,529,530,531,532,533,534,535,536,537,538,539,540,541,542,543,544,545,546,
547,548,549,550,551,552,553,554,555,556,557,558,559,560,561,562,563,564,565,566,567,568,569,570,571,572,573,574,575,576,577,578,579,580,581,582,583,584,585,
586,587,588,589,590,591,592,593,594,595,596,597,598,599,600,601,602,603,604,605,606,607,608,609,610,611,612,613,614,615,616,617,618,619,620,621,622,623,624,
625,626,627,628,629,630,631,632,633,634,635,636,637,638,639,640,641,642,643,644,645,646,647,648,649,650,651,652,653,654,655,656,657,658,659,660,661,662,663,
664,665,666,667,668,669,670,671,672,673,674,675,676,677,678,679,680,681,682,683,684,685,686,687,688,689,690,691,692,693,694,695,696,697,698,699,700,701,702,
703,704,705,706,707,708,709,710,711,712,713,714,715,716,717,718,719,720,721,722,723,724,725,726,727,728,729,730,731,732,733,734,735,736,737,738,739,740,741,
742,743,744,745,746,747,748,749,750,751,752,753,754,755,756,757,758,759,760,761,762,763,764,765,766,767,768,769,770,771,772,773,774,775,776,777,778,779,780,
781,782,783,784,785,786,787,788,789,790,791,792,793,794,795,796,797,798,799,800,801,802,803,804,805,806,807,808,809,810,811,812,813,814,815,816,817,818,819,
820,821,822,823,824,825,826,827,828,829,830,831,832,833,834,835,836,837,838,839,840,841,842,843,844,845,846,847,848,849,850,851,852,853,854,855,856,857,858,
859,860,861,862,863,864,865,866,867,868,869,870,871,872,873,874,875,876,877,878,879,880,881,882,883,884,885,886,887,888,889,890,891,892,893,894,895,896,897,
898,899,900,901,902,903,904,905,906,907,908,909,910,911,912,913,914,915,916,917,918,919,920,921,922,923,924,925,926,927,928,929,930,931,932,933,934,935,936,
937,938,939,940,941,942,943,944,945,946,947,948,949,950,951,952,953,954,955,956,957,958,959,960,961,962,963,964,965,966,967,968,969,970,971,972,973,974,975,
976,977,978,979,980,981,982,983,984,985,986,987,988,989,990,991,992,993,994,995,996,997,998,999,1000,1001,1002,1003,1004,1005,1006,1007,1008,1009,1010,1011,1012,1013,1014,
1015,1016,1017,1018,1019,1020,1021,1022,1023,1024,1025,1026,1027,1028,1029,1030,1031,1032,1033,1034,1035,1036,1037,1038,1039,1040,1041,1042,1043,1044,1045,1046,1047,1048,1049,1050,1051,1052,1053,
1054,1055,1056,1057,1058,1059,1060,1061,1062,1063,1064,1065,1066,1067,1068,1069,1070,1071,1072,1073,1074,1075,1076,1077,1078,1079,1080,1081,1082,1083,1084,1085,1086,1087,1088,1089,1090,1091,1092,
1093,1094,1095,1096,1097,1098,1099,1100,1101,1102,1103,1104,1105,1106,1107,1108,1109,1110,1111,1112,1113,1114,1115,1116,1117,1118,1119,1120,1121,1122,1123,1124,1125,1126,1127,1128,1129,1130,1131,
1132,1133,1134,1135,1136,1137,1138,1139,1140,1141,1142,1143,1144,1145,1146,1147,1148,1149,1150,1151,1152,1153,1154,1155,1156,1157,1158,1159,1160,1161,1162,1163,1164,1165,1166,1167,1168,1169,1170,
1171,1172,1173,1174,1175,1176,1177,1178,1179,1180,1181,1182,1183,1184,1185,1186,1187,1188,1189,1190,1191,1192,1193,1194,1195,1196,1197,1198,1199,1200,1201,1202,1203,1204,1205,1206,1207,1208,1209,
1210,1211,1212,1213,1214,1215,1216,1217,1218,1219,1220,1221,1222,1223,1224,1225,1226,1227,1228,1229,1230,1231,1232,1233,1234,1235,1236,1237,1238,1239,1240,1241,1242,1243,1244,1245,1246,1247,1248,
1249,1250,1251,1252,1253,1254,1255,1256,1257,1258,1259,1260,1261,1262,1263,1264,1265,1266,1267,1268,1269,1270,1271,1272,1273,1274,1275,1276,1277,1278,1279,1280,1281,1282,1283,1284,1285,1286,1287,
1288,1289,1290,1291,1292,1293,1294,1295,1296,1297,1298,1299,1300,1301,1302,1303,1304,1305,1306,1307,1308,1309,1310,1311,1312,1313,1314,1315,1316,1317,1318,1319,1320,1321,1322,1323,1324,1325,1326,
1327,1328,1329,1330,1331,1332,1333,1334,1335,1336,1337,1338,1339,1340,1341,1342,1343,1344,1345,1346,1347,1348,1349,1350,1351,1352,1353,1354,1355,1356,1357,1358,1359,1360,1361,1362,1363,1364,1365,
1366,1367,1368,1369,1370,1371,1372,1373,1374,1375,1376,1377,1378,1379,1380,1381,1382,1383,1384,1385,1386,1387,1388,1389,1390,1391,1392,1393,1394,1395,1396,1397,1398,1399,1400,1401,1402,1403,1404,
1405,1406,1407,1408,1409,1410,1411,1412,1413,1414,1415,1416,1417,1418,1419,1420,1421,1422,1423,1424,1425,1426,1427,1428,1429,1430,1431,1432,1433,1434,1435,1436,1437,1438,1439,1440,1441,1442,1443,
1444,1445,1446,1447,1448,1449,1450,1451,1452,1453,1454,1455,1456,1457,1458,1459,1460,1461,1462,1463,1464,1465,1466,1467,1468,1469,1470,1471,1472,1473,1474,1475,1476,1477,1478,1479,1480,1481,1482,
1483,1484,1485,1486,1487,1488,1489,1490,1491,1492,1493,1494,1495,1496,1497,1498,1499,1500,1501,1502,1503,1504,1505,1506,1507,1508,1509,1510,1511,1512,1513,1514,1515,1516,1517,1518,1519,1520,1521
</data>
 </layer>
 <objectgroup id="2" name="ho">
  <object id="1" x="84" y="86.6667">
   <ellipse/>
  </object>
  <object id="2" x="78.6667" y="89.3333">
   <ellipse/>
  </object>
  <object id="3" x="69.3333" y="90.6667">
   <ellipse/>
  </object>
  <object id="4" x="60" y="93.3333">
   <ellipse/>
  </object>
  <object id="5" x="57.3333" y="101.333">
   <ellipse/>
  </object>
  <object id="6" x="52" y="104">
   <ellipse/>
  </object>
  <object id="7" x="52" y="118.667">
   <ellipse/>
  </object>
  <object id="8" x="46.6667" y="121.333">
   <ellipse/>
  </object>
  <object id="9" x="48" y="132">
   <ellipse/>
  </object>
  <object id="10" x="58.6667" y="144">
   <ellipse/>
  </object>
  <object id="11" x="70.6667" y="149.333">
   <ellipse/>
  </object>
  <object id="12" x="86.6667" y="153.333">
   <ellipse/>
  </object>
  <object id="13" x="97.3333" y="168">
   <ellipse/>
  </object>
  <object id="14" x="96" y="186.667">
   <ellipse/>
  </object>
  <object id="15" x="86.6667" y="198.667">
   <ellipse/>
  </object>
  <object id="16" x="89.3333" y="214.667">
   <ellipse/>
  </object>
  <object id="17" x="93.3333" y="228">
   <ellipse/>
  </object>
  <object id="18" x="104" y="233.333">
   <ellipse/>
  </object>
  <object id="19" x="120" y="240">
   <ellipse/>
  </object>
  <object id="20" x="132" y="248">
   <ellipse/>
  </object>
  <object id="21" x="134.667" y="264">
   <ellipse/>
  </object>
  <object id="22" x="132" y="269.333">
   <ellipse/>
  </object>
  <object id="23" x="144" y="281.333">
   <ellipse/>
  </object>
  <object id="24" x="157.333" y="288">
   <ellipse/>
  </object>
  <object id="25" x="172" y="288">
   <ellipse/>
  </object>
  <object id="26" x="190.667" y="285.333">
   <ellipse/>
  </object>
  <object id="27" x="209.333" y="288">
   <ellipse/>
  </object>
  <object id="28" x="229.333" y="282.667">
   <ellipse/>
  </object>
  <object id="29" x="245.333" y="274.667">
   <ellipse/>
  </object>
  <object id="30" x="256" y="273.333">
   <ellipse/>
  </object>
  <object id="31" x="258.667" y="258.667">
   <ellipse/>
  </object>
  <object id="32" x="261.333" y="244">
   <ellipse/>
  </object>
  <object id="33" x="269.333" y="240">
   <ellipse/>
  </object>
  <object id="34" x="276" y="232">
   <ellipse/>
  </object>
  <object id="35" x="268" y="221.333">
   <ellipse/>
  </object>
  <object id="36" x="268" y="208">
   <ellipse/>
  </object>
  <object id="37" x="266.667" y="193.333">
   <ellipse/>
  </object>
  <object id="38" x="281.333" y="182.667">
   <ellipse/>
  </object>
  <object id="39" x="292" y="172">
   <ellipse/>
  </object>
  <object id="40" x="302.667" y="168">
   <ellipse/>
  </object>
  <object id="41" x="317.333" y="164">
   <ellipse/>
  </object>
  <object id="42" x="328" y="158.667">
   <ellipse/>
  </object>
  <object id="43" x="329.333" y="149.333">
   <ellipse/>
  </object>
  <object id="44" x="328" y="133.333">
   <ellipse/>
  </object>
  <object id="45" x="340" y="124">
   <ellipse/>
  </object>
  <object id="46" x="332" y="113.333">
   <ellipse/>
  </object>
  <object id="47" x="334.667" y="98.6667">
   <ellipse/>
  </object>
  <object id="48" x="341.333" y="90.6667">
   <ellipse/>
  </object>
  <object id="49" x="334.667" y="77.3333">
   <ellipse/>
  </object>
  <object id="50" x="324" y="72">
   <ellipse/>
  </object>
  <object id="51" x="312" y="68">
   <ellipse/>
  </object>
  <object id="52" x="329.333" y="122.667">
   <ellipse/>
  </object>
  <object id="53" x="329.333" y="116">
   <ellipse/>
  </object>
  <object id="54" x="329.333" y="101.333">
   <ellipse/>
  </object>
  <object id="55" x="329.333" y="89.3333">
   <ellipse/>
  </object>
  <object id="56" x="306.667" y="65.3333">
   <ellipse/>
  </object>
  <object id="57" x="298.667" y="65.3333">
   <ellipse/>
  </object>
  <object id="58" x="286.667" y="65.3333">
   <ellipse/>
  </object>
  <object id="59" x="278.667" y="62.6667">
   <ellipse/>
  </object>
  <object id="60" x="274.667" y="57.3333">
   <ellipse/>
  </object>
  <object id="61" x="269.333" y="57.3333">
   <ellipse/>
  </object>
  <object id="62" x="264" y="54.6667">
   <ellipse/>
  </object>
  <object id="63" x="257.333" y="54.6667">
   <ellipse/>
  </object>
  <object id="64" x="249.333" y="58.6667">
   <ellipse/>
  </object>
  <object id="65" x="245.333" y="64">
   <ellipse/>
  </object>
  <object id="66" x="240" y="68">
   <ellipse/>
  </object>
  <object id="67" x="226.667" y="73.3333">
   <ellipse/>
  </object>
  <object id="68" x="213.333" y="73.3333">
   <ellipse/>
  </object>
  <object id="69" x="200" y="72">
   <ellipse/>
  </object>
  <object id="70" x="190.667" y="72">
   <ellipse/>
  </object>
  <object id="71" x="180" y="73.3333">
   <ellipse/>
  </object>
  <object id="72" x="166.667" y="76">
   <ellipse/>
  </object>
  <object id="73" x="157.333" y="82.6667">
   <ellipse/>
  </object>
  <object id="74" x="148" y="90.6667">
   <ellipse/>
  </object>
  <object id="75" x="98.6667" y="88">
   <ellipse/>
  </object>
  <object id="76" x="112" y="90.6667">
   <ellipse/>
  </object>
  <object id="77" x="129.333" y="92">
   <ellipse/>
  </object>
  <object id="78" x="140" y="92">
   <ellipse/>
  </object>
  <object id="79" x="74.6667" y="92" width="141.333" height="68"/>
  <object id="80" x="52" y="94.6667" width="45.3333" height="56"/>
  <object id="81" x="165.333" y="76" width="160" height="81.3333"/>
  <object id="82" x="236" y="56" width="50.6667" height="36"/>
  <object id="83" x="205.333" y="142.667" width="113.333" height="32"/>
  <object id="84" x="97.3333" y="133.333" width="174.667" height="94.6667"/>
  <object id="85" x="221.333" y="125.333" width="70.6667" height="60"/>
  <object id="86" x="93.3333" y="145.333" width="37.3333" height="77.3333"/>
  <object id="87" x="97.3333" y="161.333" width="172" height="74.6667"/>
  <object id="88" x="118.667" y="197.333" width="146.667" height="54.6667"/>
  <object id="89" x="134.667" y="212" width="60" height="73.3333">
   <ellipse/>
  </object>
  <object id="90" x="158.667" y="180" width="116" height="105.333">
   <ellipse/>
  </object>
  <object id="91" x="270.667" y="232">
   <ellipse/>
  </object>
  <object id="92" x="184" y="285.333">
   <ellipse/>
  </object>
  <object id="93" x="197.333" y="281.333">
   <ellipse/>
  </object>
  <object id="94" x="182.667" y="280">
   <ellipse/>
  </object>
  <object id="95" x="164" y="274.667">
   <ellipse/>
  </object>
  <object id="96" x="158.667" y="265.333" height="4">
   <ellipse/>
  </object>
  <object id="97" x="152" y="252">
   <ellipse/>
  </object>
  <object id="98" x="144" y="248" width="1.33333">
   <ellipse/>
  </object>
  <object id="99" x="134.667" y="237.333" width="4" height="5.33333">
   <ellipse/>
  </object>
  <object id="100" x="126.667" y="229.333">
   <ellipse/>
  </object>
  <object id="101" x="126.667" y="229.333">
   <ellipse/>
  </object>
  <object id="102" x="120" y="224">
   <ellipse/>
  </object>
  <object id="103" x="117.333" y="222.667">
   <ellipse/>
  </object>
  <object id="104" x="161.333" y="773.333">
   <ellipse/>
  </object>
  <object id="105" x="149.333" y="776">
   <ellipse/>
  </object>
  <object id="106" x="140" y="777.333">
   <ellipse/>
  </object>
  <object id="107" x="129.333" y="781.333">
   <ellipse/>
  </object>
  <object id="108" x="124" y="794.667">
   <ellipse/>
  </object>
  <object id="109" x="118.667" y="802.667">
   <ellipse/>
  </object>
  <object id="110" x="108" y="809.333">
   <ellipse/>
  </object>
  <object id="111" x="100" y="816">
   <ellipse/>
  </object>
  <object id="112" x="97.3333" y="822.667">
   <ellipse/>
  </object>
  <object id="113" x="106.667" y="833.333">
   <ellipse/>
  </object>
  <object id="114" x="117.333" y="841.333">
   <ellipse/>
  </object>
  <object id="115" x="126.667" y="848">
   <ellipse/>
  </object>
  <object id="116" x="137.333" y="854.667">
   <ellipse/>
  </object>
  <object id="117" x="153.333" y="861.333">
   <ellipse/>
  </object>
  <object id="118" x="149.333" y="856">
   <ellipse/>
  </object>
  <object id="119" x="168" y="862.667">
   <ellipse/>
  </object>
  <object id="120" x="177.333" y="862.667">
   <ellipse/>
  </object>
  <object id="121" x="190.667" y="862.667">
   <ellipse/>
  </object>
  <object id="122" x="206.667" y="860">
   <ellipse/>
  </object>
  <object id="123" x="222.667" y="857.333">
   <ellipse/>
  </object>
  <object id="124" x="232" y="844">
   <ellipse/>
  </object>
  <object id="125" x="242.667" y="837.333">
   <ellipse/>
  </object>
  <object id="126" x="257.333" y="833.333">
   <ellipse/>
  </object>
  <object id="127" x="262.667" y="818.667">
   <ellipse/>
  </object>
  <object id="128" x="265.333" y="820">
   <ellipse/>
  </object>
  <object id="129" x="269.333" y="802.667">
   <ellipse/>
  </object>
  <object id="130" x="282.667" y="796">
   <ellipse/>
  </object>
  <object id="131" x="288" y="789.333">
   <ellipse/>
  </object>
  <object id="132" x="280" y="780">
   <ellipse/>
  </object>
  <object id="133" x="276" y="773.333">
   <ellipse/>
  </object>
  <object id="134" x="268" y="769.333">
   <ellipse/>
  </object>
  <object id="135" x="260" y="764">
   <ellipse/>
  </object>
  <object id="136" x="254.667" y="765.333">
   <ellipse/>
  </object>
  <object id="137" x="244" y="765.333">
   <ellipse/>
  </object>
  <object id="138" x="237.333" y="766.667">
   <ellipse/>
  </object>
  <object id="139" x="228" y="769.333">
   <ellipse/>
  </object>
  <object id="140" x="220" y="776">
   <ellipse/>
  </object>
  <object id="141" x="214.667" y="777.333">
   <ellipse/>
  </object>
  <object id="142" x="205.333" y="781.333">
   <ellipse/>
  </object>
  <object id="143" x="196" y="784">
   <ellipse/>
  </object>
  <object id="144" x="189.333" y="784">
   <ellipse/>
  </object>
  <object id="145" x="181.333" y="782.667">
   <ellipse/>
  </object>
  <object id="146" x="172" y="780">
   <ellipse/>
  </object>
  <object id="147" x="168" y="781.333">
   <ellipse/>
  </object>
  <object id="148" x="142.667" y="774.667" width="30.6667" height="33.3333"/>
  <object id="149" x="134.667" y="790.667" width="102.667" height="62.6667"/>
  <object id="150" x="214.667" y="768" width="65.3333" height="37.3333"/>
  <object id="151" x="224" y="785.333" width="44" height="42.6667"/>
  <object id="152" x="218.667" y="813.333" width="38.6667" height="22.6667"/>
  <object id="154" x="249.333" y="822.667"/>
  <object id="155" x="232" y="828"/>
  <object id="156" x="216" y="833.333"/>
  <object id="157" x="136" y="800" height="2.66667"/>
  <object id="158" x="136" y="813.333"/>
  <object id="159" x="136" y="822.667"/>
  <object id="160" x="133.333" y="836"/>
  <object id="161" x="137.333" y="842.667"/>
  <object id="162" x="128" y="830.667"/>
  <object id="163" x="128" y="830.667"/>
  <object id="164" x="120" y="829.333"/>
  <object id="165" x="120" y="829.333"/>
  <object id="166" x="118.667" y="822.667"/>
  <object id="167" x="112" y="821.333"/>
  <object id="168" x="120" y="813.333"/>
  <object id="169" x="120" y="813.333"/>
  <object id="170" x="125.333" y="809.333"/>
  <object id="171" x="126.667" y="808"/>
  <object id="172" x="134.667" y="801.333"/>
  <object id="173" x="136" y="801.333"/>
  <object id="174" x="156" y="801.333" width="1.33333"/>
  <object id="175" x="146.667" y="789.333"/>
  <object id="176" x="146.667" y="786.667"/>
  <object id="177" x="152" y="788" width="6.66667" height="5.33333"/>
  <object id="178" x="162.667" y="797.333" width="9.33333"/>
  <object id="179" x="212" y="800" width="2.66667"/>
  <object id="180" x="226.667" y="798.667"/>
  <object id="181" x="237.333" y="777.333"/>
  <object id="182" x="249.333" y="774.667"/>
  <object id="183" x="264" y="781.333"/>
  <object id="184" x="268" y="781.333"/>
  <object id="185" x="280" y="781.333"/>
  <object id="186" x="270.667" y="781.333"/>
  <object id="187" x="265.333" y="781.333"/>
  <object id="188" x="253.333" y="777.333"/>
  <object id="189" x="249.333" y="777.333"/>
  <object id="190" x="246.667" y="778.667" width="1.33333" height="4"/>
  <object id="191" x="246.667" y="786.667" width="2.66667" height="5.33333"/>
  <object id="192" x="245.333" y="797.333"/>
  <object id="193" x="245.333" y="804"/>
  <object id="194" x="241.333" y="810.667" width="1.33333" height="2.66667"/>
  <object id="195" x="236" y="820" height="2.66667"/>
  <object id="196" x="224" y="829.333" height="4"/>
  <object id="197" x="218.667" y="838.667"/>
  <object id="198" x="205.333" y="837.333"/>
  <object id="199" x="198.667" y="837.333" width="1.33333"/>
  <object id="200" x="192" y="837.333" width="2.66667"/>
  <object id="201" x="182.667" y="837.333"/>
  <object id="202" x="174.667" y="837.333" width="6.66667"/>
  <object id="203" x="166.667" y="834.667"/>
  <object id="204" x="162.667" y="826.667"/>
  <object id="205" x="161.333" y="825.333" width="1.33333" height="5.33333"/>
  <object id="206" x="188" y="838.667" width="5.33333"/>
  <object id="207" x="197.333" y="838.667" width="2.66667" height="2.66667"/>
  <object id="208" x="169.333" y="841.333" width="29.3333"/>
  <object id="209" x="154.667" y="834.667" width="1.33333" height="4"/>
  <object id="210" x="154.667" y="822.667" width="1.33333" height="5.33333"/>
  <object id="211" x="150.667" y="813.333" width="5.33333"/>
  <object id="212" x="173.333" y="814.667" width="5.33333" height="2.66667"/>
  <object id="213" x="181.333" y="818.667" width="6.66667" height="1.33333"/>
  <object id="214" x="194.667" y="820" width="1.33333"/>
  <object id="215" x="214.667" y="802.667" width="8" height="8"/>
  <object id="216" x="222.667" y="802.667"/>
  <object id="217" x="213.333" y="800" width="1.33333"/>
  <object id="218" x="202.667" y="802.667" width="1.33333" height="2.66667"/>
  <object id="219" x="185.333" y="804" width="2.66667"/>
  <object id="220" x="174.667" y="804"/>
  <object id="221" x="174.667" y="802.667" height="1.33333"/>
  <object id="222" x="200" y="798.667" width="12"/>
  <object id="223" x="200" y="798.667" width="12" height="22.6667"/>
  <object id="224" x="200" y="821.333"/>
  <object id="225" x="184" y="817.333" width="5.33333" height="2.66667"/>
  <object id="226" x="184" y="802.667" width="9.33333" height="5.33333"/>
  <object id="227" x="197.333" y="801.333"/>
  <object id="228" x="924" y="814.667">
   <ellipse/>
  </object>
  <object id="229" x="913.333" y="816">
   <ellipse/>
  </object>
  <object id="230" x="905.333" y="820">
   <ellipse/>
  </object>
  <object id="231" x="896" y="824">
   <ellipse/>
  </object>
  <object id="232" x="888" y="832">
   <ellipse/>
  </object>
  <object id="233" x="880" y="841.333">
   <ellipse/>
  </object>
  <object id="234" x="884" y="856">
   <ellipse/>
  </object>
  <object id="235" x="893.333" y="869.333">
   <ellipse/>
  </object>
  <object id="236" x="908" y="878.667">
   <ellipse/>
  </object>
  <object id="237" x="916" y="892">
   <ellipse/>
  </object>
  <object id="238" x="914.667" y="909.333">
   <ellipse/>
  </object>
  <object id="239" x="914.667" y="917.333">
   <ellipse/>
  </object>
  <object id="240" x="921.333" y="925.333">
   <ellipse/>
  </object>
  <object id="241" x="936" y="933.333">
   <ellipse/>
  </object>
  <object id="242" x="942.667" y="950.667">
   <ellipse/>
  </object>
  <object id="243" x="937.333" y="964">
   <ellipse/>
  </object>
  <object id="244" x="932" y="978.667">
   <ellipse/>
  </object>
  <object id="245" x="920" y="985.333">
   <ellipse/>
  </object>
  <object id="246" x="910.667" y="992">
   <ellipse/>
  </object>
  <object id="247" x="905.333" y="1008">
   <ellipse/>
  </object>
  <object id="248" x="896" y="1017.33">
   <ellipse/>
  </object>
  <object id="249" x="885.333" y="1020">
   <ellipse/>
  </object>
  <object id="250" x="877.333" y="1021.33">
   <ellipse/>
  </object>
  <object id="251" x="870.667" y="1028">
   <ellipse/>
  </object>
  <object id="252" x="864" y="1030.67">
   <ellipse/>
  </object>
  <object id="253" x="865.333" y="1042.67">
   <ellipse/>
  </object>
  <object id="254" x="862.667" y="1053.33">
   <ellipse/>
  </object>
  <object id="255" x="866.667" y="1061.33">
   <ellipse/>
  </object>
  <object id="256" x="873.333" y="1070.67">
   <ellipse/>
  </object>
  <object id="257" x="889.333" y="1080">
   <ellipse/>
  </object>
  <object id="258" x="881.333" y="1068">
   <ellipse/>
  </object>
  <object id="259" x="901.333" y="1082.67">
   <ellipse/>
  </object>
  <object id="260" x="902.667" y="1085.33">
   <ellipse/>
  </object>
  <object id="261" x="917.333" y="1085.33">
   <ellipse/>
  </object>
  <object id="262" x="932" y="1080">
   <ellipse/>
  </object>
  <object id="263" x="929.333" y="1082.67">
   <ellipse/>
  </object>
  <object id="264" x="944" y="1077.33">
   <ellipse/>
  </object>
  <object id="265" x="958.667" y="1078.67">
   <ellipse/>
  </object>
  <object id="266" x="974.667" y="1080">
   <ellipse/>
  </object>
  <object id="267" x="988" y="1085.33">
   <ellipse/>
  </object>
  <object id="268" x="997.333" y="1093.33">
   <ellipse/>
  </object>
  <object id="269" x="1010.67" y="1096">
   <ellipse/>
  </object>
  <object id="270" x="1024" y="1101.33">
   <ellipse/>
  </object>
  <object id="271" x="1018.67" y="1096">
   <ellipse/>
  </object>
  <object id="272" x="1040" y="1094.67">
   <ellipse/>
  </object>
  <object id="273" x="1042.67" y="1101.33">
   <ellipse/>
  </object>
  <object id="274" x="1057.33" y="1100">
   <ellipse/>
  </object>
  <object id="275" x="1065.33" y="1101.33">
   <ellipse/>
  </object>
  <object id="276" x="1068" y="1106.67">
   <ellipse/>
  </object>
  <object id="277" x="1084" y="1104">
   <ellipse/>
  </object>
  <object id="278" x="1080" y="1105.33">
   <ellipse/>
  </object>
  <object id="279" x="1094.67" y="1104">
   <ellipse/>
  </object>
  <object id="280" x="1101.33" y="1090.67">
   <ellipse/>
  </object>
  <object id="281" x="1101.33" y="1093.33">
   <ellipse/>
  </object>
  <object id="282" x="1117.33" y="1082.67">
   <ellipse/>
  </object>
  <object id="283" x="1128" y="1077.33">
   <ellipse/>
  </object>
  <object id="284" x="1129.33" y="1073.33">
   <ellipse/>
  </object>
  <object id="285" x="1132" y="1057.33">
   <ellipse/>
  </object>
  <object id="286" x="1140" y="1054.67">
   <ellipse/>
  </object>
  <object id="287" x="1146.67" y="1046.67">
   <ellipse/>
  </object>
  <object id="288" x="1152" y="1040">
   <ellipse/>
  </object>
  <object id="289" x="1145.33" y="1032">
   <ellipse/>
  </object>
  <object id="290" x="1141.33" y="1025.33">
   <ellipse/>
  </object>
  <object id="291" x="1134.67" y="1008">
   <ellipse/>
  </object>
  <object id="292" x="1136" y="993.333">
   <ellipse/>
  </object>
  <object id="293" x="1144" y="984">
   <ellipse/>
  </object>
  <object id="294" x="1150.67" y="973.333">
   <ellipse/>
  </object>
  <object id="295" x="1146.67" y="958.667">
   <ellipse/>
  </object>
  <object id="296" x="1148" y="942.667">
   <ellipse/>
  </object>
  <object id="297" x="1158.67" y="934.667">
   <ellipse/>
  </object>
  <object id="298" x="1172" y="925.333">
   <ellipse/>
  </object>
  <object id="299" x="1180" y="920" width="2.66667" height="1.33333">
   <ellipse/>
  </object>
  <object id="300" x="1182.67" y="914.667">
   <ellipse/>
  </object>
  <object id="301" x="1184" y="918.667">
   <ellipse/>
  </object>
  <object id="302" x="1178.67" y="900" height="1.33333">
   <ellipse/>
  </object>
  <object id="303" x="1181.33" y="898.667">
   <ellipse/>
  </object>
  <object id="304" x="1184" y="888">
   <ellipse/>
  </object>
  <object id="305" x="1186.67" y="881.333">
   <ellipse/>
  </object>
  <object id="306" x="1177.33" y="872">
   <ellipse/>
  </object>
  <object id="307" x="1173.33" y="861.333">
   <ellipse/>
  </object>
  <object id="308" x="1166.67" y="850.667">
   <ellipse/>
  </object>
  <object id="309" x="1156" y="844">
   <ellipse/>
  </object>
  <object id="310" x="1146.67" y="842.667">
   <ellipse/>
  </object>
  <object id="311" x="1140" y="840">
   <ellipse/>
  </object>
  <object id="312" x="1126.67" y="840">
   <ellipse/>
  </object>
  <object id="313" x="1116" y="841.333">
   <ellipse/>
  </object>
  <object id="314" x="1105.33" y="838.667">
   <ellipse/>
  </object>
  <object id="315" x="1094.67" y="836">
   <ellipse/>
  </object>
  <object id="316" x="1085.33" y="828">
   <ellipse/>
  </object>
  <object id="317" x="1076" y="820">
   <ellipse/>
  </object>
  <object id="318" x="1064" y="808">
   <ellipse/>
  </object>
  <object id="319" x="1064" y="798.667">
   <ellipse/>
  </object>
  <object id="320" x="1058.67" y="789.333">
   <ellipse/>
  </object>
  <object id="321" x="1048" y="782.667" height="1.33333">
   <ellipse/>
  </object>
  <object id="322" x="1050.67" y="785.333">
   <ellipse/>
  </object>
  <object id="323" x="1041.33" y="781.333">
   <ellipse/>
  </object>
  <object id="324" x="1028" y="777.333">
   <ellipse/>
  </object>
  <object id="325" x="1017.33" y="776">
   <ellipse/>
  </object>
  <object id="326" x="1008" y="777.333">
   <ellipse/>
  </object>
  <object id="327" x="997.333" y="778.667">
   <ellipse/>
  </object>
  <object id="328" x="986.667" y="784">
   <ellipse/>
  </object>
  <object id="329" x="978.667" y="790.667">
   <ellipse/>
  </object>
  <object id="330" x="970.667" y="798.667">
   <ellipse/>
  </object>
  <object id="331" x="964" y="804" height="1.33333">
   <ellipse/>
  </object>
  <object id="332" x="962.667" y="805.333">
   <ellipse/>
  </object>
  <object id="333" x="953.333" y="809.333">
   <ellipse/>
  </object>
  <object id="334" x="946.667" y="813.333">
   <ellipse/>
  </object>
  <object id="335" x="938.667" y="812">
   <ellipse/>
  </object>
  <object id="336" x="932" y="810.667">
   <ellipse/>
  </object>
  <object id="337" x="958.667" y="805.333">
   <ellipse/>
  </object>
  <object id="338" x="977.333" y="802.667">
   <ellipse/>
  </object>
  <object id="339" x="989.333" y="790.667">
   <ellipse/>
  </object>
  <object id="340" x="994.667" y="786.667">
   <ellipse/>
  </object>
  <object id="341" x="1010.67" y="777.333">
   <ellipse/>
  </object>
  <object id="342" x="940" y="816" width="169.333" height="269.333"/>
  <object id="343" x="980" y="1041.33" width="125.333" height="52"/>
  <object id="344" x="1018.67" y="1053.33" width="97.3333" height="38.6667"/>
  <object id="345" x="1016" y="777.333" width="54.6667" height="57.3333">
   <ellipse/>
  </object>
  <object id="346" x="998.667" y="777.333" width="48" height="85.3333">
   <ellipse/>
  </object>
  <object id="347" x="968" y="792" width="58.6667" height="66.6667">
   <ellipse/>
  </object>
  <object id="348" x="993.333" y="776" width="36" height="40">
   <ellipse/>
  </object>
  <object id="349" x="969.333" y="781.333" width="21.3333" height="45.3333">
   <ellipse/>
  </object>
  <object id="350" x="966.667" y="814.667">
   <ellipse/>
  </object>
  <object id="351" x="1000" y="805.333">
   <ellipse/>
  </object>
  <object id="352" x="1009.33" y="793.333" width="1.33333">
   <ellipse/>
  </object>
  <object id="353" x="1033.33" y="790.667" width="6.66667" height="1.33333">
   <ellipse/>
  </object>
  <object id="354" x="1052" y="808">
   <ellipse/>
  </object>
  <object id="355" x="1058.67" y="829.333" height="1.33333">
   <ellipse/>
  </object>
  <object id="356" x="913.333" y="817.333" width="80" height="110.667"/>
  <object id="357" x="946.667" y="982.667" width="2.66667" height="9.33333"/>
  <object id="358" x="937.333" y="936" width="1.33333" height="1.33333"/>
  <object id="359" x="945.333" y="941.333"/>
  <object id="360" x="934.667" y="922.667"/>
  <object id="361" x="950.667" y="976"/>
  <object id="362" x="910.667" y="868"/>
  <object id="363" x="902.667" y="857.333"/>
  <object id="364" x="900" y="845.333"/>
  <object id="365" x="913.333" y="848"/>
  <object id="366" x="893.333" y="848"/>
  <object id="367" x="912" y="830.667"/>
  <object id="368" x="933.333" y="992"/>
  <object id="369" x="936" y="1004" width="1.33333" height="1.33333"/>
  <object id="370" x="936" y="1009.33"/>
  <object id="371" x="938.667" y="1024"/>
  <object id="372" x="937.333" y="1037.33"/>
  <object id="373" x="938.667" y="1048"/>
  <object id="374" x="936" y="1065.33"/>
  <object id="375" x="925.333" y="1073.33"/>
  <object id="376" x="917.333" y="1073.33"/>
  <object id="377" x="902.667" y="1068"/>
  <object id="378" x="897.333" y="1061.33"/>
  <object id="379" x="889.333" y="1058.67"/>
  <object id="380" x="888" y="1053.33"/>
  <object id="381" x="880" y="1048"/>
  <object id="382" x="885.333" y="1032"/>
  <object id="383" x="894.667" y="1044"/>
  <object id="384" x="890.667" y="1036"/>
  <object id="385" x="882.667" y="1032"/>
  <object id="386" x="898.667" y="1024"/>
  <object id="387" x="910.667" y="1044"/>
  <object id="388" x="893.333" y="1041.33"/>
  <object id="389" x="909.333" y="1049.33"/>
  <object id="390" x="920" y="1053.33"/>
  <object id="391" x="925.333" y="1058.67"/>
  <object id="392" x="929.333" y="1044"/>
  <object id="393" x="925.333" y="1033.33"/>
  <object id="394" x="920" y="1029.33"/>
  <object id="395" x="934.667" y="1012"/>
  <object id="396" x="933.333" y="1005.33"/>
  <object id="397" x="925.333" y="1004"/>
  <object id="398" x="920" y="1004" width="4" height="6.66667"/>
  <object id="399" x="913.333" y="1029.33"/>
  <object id="400" x="921.333" y="1017.33" width="1.33333" height="1.33333"/>
  <object id="401" x="894.667" y="1024" width="2.66667"/>
  <object id="402" x="897.333" y="989.333" width="66.6667" height="77.3333">
   <ellipse/>
  </object>
  <object id="403" x="866.667" y="1020" width="53.3333" height="52">
   <ellipse/>
  </object>
  <object id="404" x="1148" y="852" width="36" height="80">
   <ellipse/>
  </object>
  <object id="405" x="945.333" y="921.333" width="196" height="145.333">
   <ellipse/>
  </object>
  <object id="406" x="1142.67" y="928">
   <ellipse/>
  </object>
  <object id="407" x="1158.67" y="921.333">
   <ellipse/>
  </object>
  <object id="408" x="1148" y="916">
   <ellipse/>
  </object>
  <object id="409" x="1148" y="908">
   <ellipse/>
  </object>
  <object id="410" x="1148" y="897.333">
   <ellipse/>
  </object>
  <object id="411" x="1149.33" y="888" height="2.66667">
   <ellipse/>
  </object>
  <object id="412" x="1149.33" y="877.333">
   <ellipse/>
  </object>
  <object id="413" x="1146.67" y="889.333">
   <ellipse/>
  </object>
  <object id="414" x="1146.67" y="877.333">
   <ellipse/>
  </object>
  <object id="415" x="1152" y="864">
   <ellipse/>
  </object>
  <object id="416" x="1152" y="858.667">
   <ellipse/>
  </object>
  <object id="417" x="1089.33" y="849.333" width="80" height="52">
   <ellipse/>
  </object>
  <object id="419" x="1105.33" y="937.333" width="2.66667" height="6.66667">
   <ellipse/>
  </object>
  <object id="420" x="1094.67" y="914.667" width="58.6667" height="85.3333">
   <ellipse/>
  </object>
  <object id="421" x="1153.33" y="976">
   <ellipse/>
  </object>
  <object id="422" x="1084" y="985.333" width="58.6667" height="78.6667">
   <ellipse/>
  </object>
  <object id="425" x="1060" y="1002.67" width="88" height="68">
   <ellipse/>
  </object>
  <object id="426" x="1144" y="1033.33" width="1.33333">
   <ellipse/>
  </object>
  <object id="427" x="1146.67" y="1037.33">
   <ellipse/>
  </object>
  <object id="428" x="1150.67" y="1041.33">
   <ellipse/>
  </object>
  <object id="429" x="1150.67" y="1045.33">
   <ellipse/>
  </object>
  <object id="430" x="1140" y="1057.33">
   <ellipse/>
  </object>
  <object id="431" x="1128" y="1064">
   <ellipse/>
  </object>
  <object id="432" x="1116" y="1064" width="12" height="2.66667">
   <ellipse/>
  </object>
  <object id="433" x="1101.33" y="1070.67">
   <ellipse/>
  </object>
  <object id="434" x="1097.33" y="1077.33">
   <ellipse/>
  </object>
  <object id="435" x="1113.33" y="1074.67">
   <ellipse/>
  </object>
  <object id="436" x="1120" y="1060" width="1.33333">
   <ellipse/>
  </object>
  <object id="437" x="1102.67" y="1061.33" width="12" height="2.66667">
   <ellipse/>
  </object>
  <object id="438" x="1102.67" y="1064">
   <ellipse/>
  </object>
  <object id="439" x="1138.67" y="1040">
   <ellipse/>
  </object>
  <object id="440" x="1138.67" y="1040">
   <ellipse/>
  </object>
  <object id="441" x="1126.67" y="1052" width="2.66667" height="2.66667">
   <ellipse/>
  </object>
  <object id="442" x="1110.67" y="1065.33">
   <ellipse/>
  </object>
  <object id="443" x="1090.67" y="1073.33" width="6.66667" height="2.66667">
   <ellipse/>
  </object>
  <object id="444" x="1089.33" y="1077.33">
   <ellipse/>
  </object>
  <object id="445" x="1068" y="1081.33">
   <ellipse/>
  </object>
  <object id="446" x="1054.67" y="1081.33" width="2.66667">
   <ellipse/>
  </object>
  <object id="447" x="1054.67" y="1081.33" width="4" height="1.33333">
   <ellipse/>
  </object>
  <object id="448" x="1116" y="1066.67">
   <ellipse/>
  </object>
  <object id="449" x="1114.67" y="1057.33">
   <ellipse/>
  </object>
  <object id="450" x="1108" y="1049.33">
   <ellipse/>
  </object>
  <object id="451" x="1050" y="257">
   <ellipse/>
  </object>
  <object id="452" x="1042" y="254">
   <ellipse/>
  </object>
  <object id="453" x="1031" y="257">
   <ellipse/>
  </object>
  <object id="454" x="1023" y="257">
   <ellipse/>
  </object>
  <object id="455" x="1014" y="261">
   <ellipse/>
  </object>
  <object id="456" x="1007" y="265">
   <ellipse/>
  </object>
  <object id="457" x="1000" y="269">
   <ellipse/>
  </object>
  <object id="458" x="997" y="279">
   <ellipse/>
  </object>
  <object id="459" x="990" y="292">
   <ellipse/>
  </object>
  <object id="460" x="982" y="299">
   <ellipse/>
  </object>
  <object id="461" x="974" y="301">
   <ellipse/>
  </object>
  <object id="462" x="970" y="306">
   <ellipse/>
  </object>
  <object id="463" x="971" y="321">
   <ellipse/>
  </object>
  <object id="464" x="970" y="331">
   <ellipse/>
  </object>
  <object id="465" x="966" y="336">
   <ellipse/>
  </object>
  <object id="466" x="973" y="347">
   <ellipse/>
  </object>
  <object id="467" x="983" y="350">
   <ellipse/>
  </object>
  <object id="468" x="998" y="353">
   <ellipse/>
  </object>
  <object id="469" x="1011" y="358">
   <ellipse/>
  </object>
  <object id="470" x="1021" y="366">
   <ellipse/>
  </object>
  <object id="471" x="1023" y="372">
   <ellipse/>
  </object>
  <object id="472" x="1035" y="377">
   <ellipse/>
  </object>
  <object id="473" x="1048" y="378">
   <ellipse/>
  </object>
  <object id="474" x="1062" y="380" width="1">
   <ellipse/>
  </object>
  <object id="475" x="1063" y="380">
   <ellipse/>
  </object>
  <object id="476" x="1075" y="384">
   <ellipse/>
  </object>
  <object id="477" x="1090" y="386">
   <ellipse/>
  </object>
  <object id="478" x="1103" y="381">
   <ellipse/>
  </object>
  <object id="479" x="1114" y="376">
   <ellipse/>
  </object>
  <object id="480" x="1125" y="369">
   <ellipse/>
  </object>
  <object id="481" x="1125" y="351">
   <ellipse/>
  </object>
  <object id="482" x="1132" y="342">
   <ellipse/>
  </object>
  <object id="483" x="1142" y="334">
   <ellipse/>
  </object>
  <object id="484" x="1147" y="327">
   <ellipse/>
  </object>
  <object id="485" x="1141" y="312">
   <ellipse/>
  </object>
  <object id="486" x="1145" y="301">
   <ellipse/>
  </object>
  <object id="487" x="1151" y="293">
   <ellipse/>
  </object>
  <object id="488" x="1156" y="287">
   <ellipse/>
  </object>
  <object id="489" x="1154" y="280">
   <ellipse/>
  </object>
  <object id="490" x="1150" y="275">
   <ellipse/>
  </object>
  <object id="491" x="1148" y="272">
   <ellipse/>
  </object>
  <object id="492" x="1144" y="268">
   <ellipse/>
  </object>
  <object id="493" x="1144" y="266">
   <ellipse/>
  </object>
  <object id="494" x="1140" y="264">
   <ellipse/>
  </object>
  <object id="495" x="1136" y="264">
   <ellipse/>
  </object>
  <object id="496" x="1133" y="263">
   <ellipse/>
  </object>
  <object id="497" x="1132" y="260">
   <ellipse/>
  </object>
  <object id="498" x="1124" y="257">
   <ellipse/>
  </object>
  <object id="499" x="1115" y="259">
   <ellipse/>
  </object>
  <object id="500" x="1108" y="262">
   <ellipse/>
  </object>
  <object id="501" x="1100" y="264">
   <ellipse/>
  </object>
  <object id="502" x="1089" y="267">
   <ellipse/>
  </object>
  <object id="503" x="1081" y="267">
   <ellipse/>
  </object>
  <object id="504" x="1075" y="264">
   <ellipse/>
  </object>
  <object id="505" x="1072" y="264">
   <ellipse/>
  </object>
  <object id="506" x="1069" y="264">
   <ellipse/>
  </object>
  <object id="507" x="1064" y="264">
   <ellipse/>
  </object>
  <object id="508" x="1060" y="261">
   <ellipse/>
  </object>
  <object id="509" x="1057" y="261">
   <ellipse/>
  </object>
  <object id="510" x="1055" y="259">
   <ellipse/>
  </object>
  <object id="511" x="1053" y="258">
   <ellipse/>
  </object>
  <object id="512" x="1050" y="257" width="1">
   <ellipse/>
  </object>
  <object id="513" x="1048" y="257">
   <ellipse/>
  </object>
  <object id="514" x="1046" y="257">
   <ellipse/>
  </object>
  <object id="515" x="1041" y="256">
   <ellipse/>
  </object>
  <object id="516" x="1011" y="269" width="137" height="77">
   <ellipse/>
  </object>
  <object id="517" x="1146" y="288"/>
  <object id="518" x="1137" y="280"/>
  <object id="519" x="1121" y="272"/>
  <object id="520" x="1138" y="322"/>
  <object id="521" x="1119" y="343"/>
  <object id="522" x="1117" y="362"/>
  <object id="523" x="1104" y="369"/>
  <object id="524" x="1104" y="351"/>
  <object id="525" x="1094" y="349"/>
  <object id="526" x="1089" y="368"/>
  <object id="527" x="1073" y="369"/>
  <object id="528" x="1081" y="355"/>
  <object id="529" x="1068" y="345"/>
  <object id="530" x="1063" y="365"/>
  <object id="531" x="1051" y="368"/>
  <object id="532" x="1056" y="350"/>
  <object id="533" x="972" y="298" width="105" height="52"/>
  <object id="534" x="1022" y="356"/>
  <object id="535" x="1036" y="361"/>
  <object id="536" x="1048" y="358"/>
  <object id="537" x="1037" y="350"/>
  <object id="538" x="1007" y="323" width="86" height="45"/>
  <object id="539" x="996" y="293"/>
  <object id="540" x="996" y="293"/>
  <object id="541" x="1012" y="293"/>
  <object id="542" x="1009" y="278"/>
  <object id="543" x="1023" y="277"/>
  <object id="544" x="1025" y="267"/>
  <object id="545" x="1012" y="269"/>
  <object id="546" x="1015" y="287"/>
  <object id="547" x="1022" y="289"/>
  <object id="548" x="1036" y="272"/>
  <object id="549" x="1047" y="271"/>
  <object id="550" x="1068" y="274"/>
  <object id="551" x="1079" y="275"/>
  <object id="552" x="1061" y="275"/>
  <object id="553" x="1001" y="300"/>
  <object id="554" x="1008" y="313"/>
  <object id="555" x="1009" y="319" height="3"/>
  <object id="556" x="996" y="330"/>
  <object id="557" x="1007" y="344"/>
  <object id="558" x="1010" y="342" width="2" height="2"/>
  <object id="559" x="1007" y="326" width="6" height="5"/>
  <object id="560" x="1035" y="320"/>
  <object id="561" x="1042" y="315" width="3" height="2"/>
  <object id="562" x="1051" y="305" width="12" height="6"/>
  <object id="563" x="1080" y="297" width="6" height="1"/>
  <object id="564" x="1096" y="297" width="7"/>
  <object id="565" x="1077" y="304" width="27" height="26"/>
  <object id="566" x="1123" y="317" width="1" height="1"/>
  <object id="567" x="1124" y="312" height="3"/>
  <object id="568" x="1126" y="300" height="1"/>
  <object id="569" x="1114" y="289" width="9" height="3"/>
  <object id="570" x="1083" y="282"/>
  <object id="571" x="1047" y="280" width="27" height="5"/>
  <object id="572" x="1029" y="290" height="1"/>
 </objectgroup>
 <objectgroup id="3" name="vatcan">
  <object id="573" x="56" y="174">
   <ellipse/>
  </object>
  <object id="574" x="206" y="467">
   <ellipse/>
  </object>
  <object id="575" x="168" y="513">
   <ellipse/>
  </object>
  <object id="576" x="178" y="509">
   <ellipse/>
  </object>
  <object id="577" x="178" y="496">
   <ellipse/>
  </object>
  <object id="578" x="180" y="491">
   <ellipse/>
  </object>
  <object id="579" x="186" y="491">
   <ellipse/>
  </object>
  <object id="580" x="193" y="504">
   <ellipse/>
  </object>
  <object id="581" x="195" y="511">
   <ellipse/>
  </object>
  <object id="582" x="201" y="511">
   <ellipse/>
  </object>
  <object id="583" x="214" y="511">
   <ellipse/>
  </object>
  <object id="584" x="215" y="499">
   <ellipse/>
  </object>
  <object id="585" x="205" y="495">
   <ellipse/>
  </object>
  <object id="586" x="192" y="493">
   <ellipse/>
  </object>
  <object id="587" x="303" y="497">
   <ellipse/>
  </object>
  <object id="588" x="294" y="484">
   <ellipse/>
  </object>
  <object id="589" x="423" y="314">
   <ellipse/>
  </object>
  <object id="590" x="506" y="164">
   <ellipse/>
  </object>
  <object id="592" x="577" y="111">
   <ellipse/>
  </object>
  <object id="593" x="207" y="33">
   <ellipse/>
  </object>
  <object id="594" x="176" y="28">
   <ellipse/>
  </object>
  <object id="595" x="166" y="30">
   <ellipse/>
  </object>
  <object id="599" x="206" y="-3">
   <ellipse/>
  </object>
  <object id="600" x="44" y="30">
   <ellipse/>
  </object>
  <object id="601" x="46" y="46">
   <ellipse/>
  </object>
  <object id="602" x="46" y="52">
   <ellipse/>
  </object>
  <object id="603" x="73" y="49">
   <ellipse/>
  </object>
  <object id="604" x="74" y="39">
   <ellipse/>
  </object>
  <object id="605" x="72" y="32">
   <ellipse/>
  </object>
  <object id="606" x="74" y="27">
   <ellipse/>
  </object>
  <object id="607" x="75" y="22">
   <ellipse/>
  </object>
  <object id="608" x="83" y="42">
   <ellipse/>
  </object>
  <object id="609" x="93" y="39">
   <ellipse/>
  </object>
  <object id="610" x="87" y="34">
   <ellipse/>
  </object>
  <object id="611" x="74" y="20">
   <ellipse/>
  </object>
  <object id="612" x="70" y="22">
   <ellipse/>
  </object>
  <object id="613" x="66" y="31">
   <ellipse/>
  </object>
  <object id="614" x="60" y="34">
   <ellipse/>
  </object>
  <object id="615" x="61" y="42">
   <ellipse/>
  </object>
  <object id="616" x="45" y="24">
   <ellipse/>
  </object>
  <object id="617" x="20" y="108">
   <ellipse/>
  </object>
  <object id="618" x="14" y="130">
   <ellipse/>
  </object>
  <object id="619" x="98" y="319">
   <ellipse/>
  </object>
  <object id="620" x="95" y="308">
   <ellipse/>
  </object>
  <object id="621" x="97" y="295">
   <ellipse/>
  </object>
  <object id="622" x="23" y="357">
   <ellipse/>
  </object>
  <object id="623" x="23" y="370">
   <ellipse/>
  </object>
  <object id="624" x="26" y="378">
   <ellipse/>
  </object>
  <object id="625" x="14" y="365">
   <ellipse/>
  </object>
  <object id="626" x="31" y="368">
   <ellipse/>
  </object>
  <object id="632" x="238" y="550">
   <ellipse/>
  </object>
  <object id="633" x="232" y="550">
   <ellipse/>
  </object>
  <object id="634" x="242" y="556">
   <ellipse/>
  </object>
  <object id="635" x="130" y="566">
   <ellipse/>
  </object>
  <object id="636" x="119" y="555">
   <ellipse/>
  </object>
  <object id="637" x="110" y="561">
   <ellipse/>
  </object>
  <object id="638" x="115" y="571">
   <ellipse/>
  </object>
  <object id="639" x="119" y="575">
   <ellipse/>
  </object>
  <object id="649" x="70" y="560">
   <ellipse/>
  </object>
  <object id="650" x="72" y="552">
   <ellipse/>
  </object>
  <object id="651" x="73" y="547">
   <ellipse/>
  </object>
  <object id="652" x="74" y="543">
   <ellipse/>
  </object>
  <object id="653" x="74" y="538">
   <ellipse/>
  </object>
  <object id="654" x="76" y="532">
   <ellipse/>
  </object>
  <object id="655" x="76" y="521">
   <ellipse/>
  </object>
  <object id="656" x="67" y="532">
   <ellipse/>
  </object>
  <object id="657" x="61" y="537" width="1" height="1">
   <ellipse/>
  </object>
  <object id="658" x="61" y="544">
   <ellipse/>
  </object>
  <object id="659" x="60" y="552">
   <ellipse/>
  </object>
  <object id="660" x="62" y="564">
   <ellipse/>
  </object>
  <object id="661" x="399" y="62">
   <ellipse/>
  </object>
  <object id="665" x="388" y="32">
   <ellipse/>
  </object>
  <object id="666" x="390" y="43">
   <ellipse/>
  </object>
  <object id="667" x="381" y="42" width="1">
   <ellipse/>
  </object>
  <object id="668" x="398" y="41">
   <ellipse/>
  </object>
  <object id="669" x="385" y="39">
   <ellipse/>
  </object>
  <object id="670" x="448" y="40">
   <ellipse/>
  </object>
  <object id="671" x="445" y="51">
   <ellipse/>
  </object>
  <object id="672" x="441" y="50">
   <ellipse/>
  </object>
  <object id="673" x="445" y="64">
   <ellipse/>
  </object>
  <object id="674" x="476" y="71">
   <ellipse/>
  </object>
  <object id="675" x="484" y="62">
   <ellipse/>
  </object>
  <object id="676" x="468" y="59">
   <ellipse/>
  </object>
  <object id="677" x="461" y="54">
   <ellipse/>
  </object>
  <object id="678" x="459" y="46">
   <ellipse/>
  </object>
  <object id="679" x="459" y="39">
   <ellipse/>
  </object>
  <object id="680" x="462" y="33">
   <ellipse/>
  </object>
  <object id="681" x="470" y="26">
   <ellipse/>
  </object>
  <object id="682" x="472" y="23">
   <ellipse/>
  </object>
  <object id="683" x="475" y="23">
   <ellipse/>
  </object>
  <object id="684" x="475" y="33" width="1" height="2">
   <ellipse/>
  </object>
  <object id="685" x="473" y="40">
   <ellipse/>
  </object>
  <object id="686" x="482" y="47">
   <ellipse/>
  </object>
  <object id="687" x="497" y="47">
   <ellipse/>
  </object>
  <object id="688" x="503" y="49" width="3">
   <ellipse/>
  </object>
  <object id="689" x="513" y="49">
   <ellipse/>
  </object>
  <object id="690" x="509" y="56">
   <ellipse/>
  </object>
  <object id="691" x="492" y="51">
   <ellipse/>
  </object>
  <object id="692" x="484" y="41">
   <ellipse/>
  </object>
  <object id="693" x="484" y="32">
   <ellipse/>
  </object>
  <object id="694" x="490" y="39">
   <ellipse/>
  </object>
  <object id="695" x="505" y="46">
   <ellipse/>
  </object>
  <object id="696" x="508" y="46">
   <ellipse/>
  </object>
  <object id="697" x="506" y="40">
   <ellipse/>
  </object>
  <object id="698" x="505" y="37">
   <ellipse/>
  </object>
  <object id="699" x="504" y="35">
   <ellipse/>
  </object>
  <object id="700" x="503" y="54">
   <ellipse/>
  </object>
  <object id="701" x="501" y="68">
   <ellipse/>
  </object>
  <object id="702" x="450" y="69">
   <ellipse/>
  </object>
  <object id="703" x="448" y="62">
   <ellipse/>
  </object>
  <object id="704" x="448" y="55">
   <ellipse/>
  </object>
  <object id="705" x="444" y="51">
   <ellipse/>
  </object>
  <object id="706" x="459" y="46">
   <ellipse/>
  </object>
  <object id="707" x="459" y="46">
   <ellipse/>
  </object>
  <object id="708" x="464" y="38">
   <ellipse/>
  </object>
  <object id="709" x="473" y="26">
   <ellipse/>
  </object>
  <object id="710" x="473" y="24">
   <ellipse/>
  </object>
  <object id="711" x="472" y="23" width="1">
   <ellipse/>
  </object>
  <object id="712" x="458" y="39">
   <ellipse/>
  </object>
  <object id="713" x="460" y="47" width="3" height="5">
   <ellipse/>
  </object>
  <object id="714" x="475" y="65">
   <ellipse/>
  </object>
  <object id="715" x="478" y="71">
   <ellipse/>
  </object>
  <object id="716" x="475" y="58" width="1">
   <ellipse/>
  </object>
  <object id="717" x="466" y="57">
   <ellipse/>
  </object>
  <object id="718" x="480" y="38">
   <ellipse/>
  </object>
  <object id="719" x="481" y="36">
   <ellipse/>
  </object>
  <object id="720" x="479" y="29">
   <ellipse/>
  </object>
  <object id="721" x="471" y="55">
   <ellipse/>
  </object>
  <object id="722" x="474" y="62" width="1">
   <ellipse/>
  </object>
  <object id="723" x="503" y="68">
   <ellipse/>
  </object>
  <object id="724" x="509" y="57">
   <ellipse/>
  </object>
  <object id="725" x="509" y="57">
   <ellipse/>
  </object>
  <object id="726" x="511" y="50">
   <ellipse/>
  </object>
  <object id="727" x="511" y="48">
   <ellipse/>
  </object>
  <object id="728" x="509" y="40">
   <ellipse/>
  </object>
  <object id="729" x="463" y="65" width="1" height="2">
   <ellipse/>
  </object>
  <object id="730" x="486" y="56">
   <ellipse/>
  </object>
  <object id="731" x="479" y="43">
   <ellipse/>
  </object>
  <object id="732" x="479" y="35">
   <ellipse/>
  </object>
  <object id="733" x="665" y="9">
   <ellipse/>
  </object>
  <object id="734" x="623" y="31">
   <ellipse/>
  </object>
  <object id="735" x="622" y="20" width="1">
   <ellipse/>
  </object>
  <object id="736" x="626" y="19">
   <ellipse/>
  </object>
  <object id="737" x="629" y="33">
   <ellipse/>
  </object>
  <object id="738" x="637" y="36">
   <ellipse/>
  </object>
  <object id="739" x="634" y="27">
   <ellipse/>
  </object>
  <object id="740" x="624" y="19">
   <ellipse/>
  </object>
  <object id="741" x="20" y="459">
   <ellipse/>
  </object>
  <object id="742" x="40" y="458">
   <ellipse/>
  </object>
  <object id="743" x="51" y="446">
   <ellipse/>
  </object>
  <object id="744" x="46" y="440">
   <ellipse/>
  </object>
  <object id="745" x="32" y="440">
   <ellipse/>
  </object>
  <object id="746" x="25" y="431">
   <ellipse/>
  </object>
  <object id="747" x="268" y="351">
   <ellipse/>
  </object>
  <object id="748" x="263" y="345">
   <ellipse/>
  </object>
  <object id="749" x="258" y="338">
   <ellipse/>
  </object>
  <object id="750" x="250" y="342">
   <ellipse/>
  </object>
  <object id="751" x="260" y="354">
   <ellipse/>
  </object>
  <object id="752" x="227" y="355">
   <ellipse/>
  </object>
  <object id="753" x="228" y="347">
   <ellipse/>
  </object>
  <object id="754" x="227" y="341">
   <ellipse/>
  </object>
  <object id="755" x="224" y="330">
   <ellipse/>
  </object>
  <object id="756" x="218" y="341" height="1">
   <ellipse/>
  </object>
  <object id="757" x="216" y="349">
   <ellipse/>
  </object>
  <object id="758" x="237" y="349">
   <ellipse/>
  </object>
  <object id="759" x="237" y="348">
   <ellipse/>
  </object>
  <object id="760" x="239" y="346">
   <ellipse/>
  </object>
  <object id="761" x="237" y="341">
   <ellipse/>
  </object>
  <object id="762" x="232" y="335">
   <ellipse/>
  </object>
  <object id="763" x="231" y="329">
   <ellipse/>
  </object>
  <object id="764" x="313" y="287">
   <ellipse/>
  </object>
  <object id="765" x="316" y="302">
   <ellipse/>
  </object>
  <object id="766" x="314" y="313">
   <ellipse/>
  </object>
  <object id="767" x="324" y="328">
   <ellipse/>
  </object>
  <object id="768" x="339" y="324">
   <ellipse/>
  </object>
  <object id="769" x="339" y="318">
   <ellipse/>
  </object>
  <object id="770" x="339" y="312">
   <ellipse/>
  </object>
  <object id="771" x="339" y="308">
   <ellipse/>
  </object>
  <object id="772" x="341" y="301">
   <ellipse/>
  </object>
  <object id="773" x="341" y="297" height="2">
   <ellipse/>
  </object>
  <object id="774" x="337" y="292">
   <ellipse/>
  </object>
  <object id="775" x="337" y="287">
   <ellipse/>
  </object>
  <object id="776" x="337" y="283">
   <ellipse/>
  </object>
  <object id="777" x="330" y="291">
   <ellipse/>
  </object>
  <object id="778" x="330" y="307">
   <ellipse/>
  </object>
  <object id="779" x="330" y="313">
   <ellipse/>
  </object>
  <object id="780" x="351" y="304">
   <ellipse/>
  </object>
  <object id="781" x="351" y="300">
   <ellipse/>
  </object>
  <object id="782" x="351" y="295">
   <ellipse/>
  </object>
  <object id="783" x="561" y="98">
   <ellipse/>
  </object>
  <object id="784" x="563" y="92">
   <ellipse/>
  </object>
  <object id="785" x="563" y="83">
   <ellipse/>
  </object>
  <object id="786" x="591" y="100">
   <ellipse/>
  </object>
  <object id="787" x="589" y="91">
   <ellipse/>
  </object>
  <object id="788" x="585" y="77">
   <ellipse/>
  </object>
  <object id="789" x="459" y="191">
   <ellipse/>
  </object>
  <object id="790" x="459" y="185">
   <ellipse/>
  </object>
  <object id="791" x="459" y="171">
   <ellipse/>
  </object>
  <object id="792" x="454" y="178">
   <ellipse/>
  </object>
  <object id="793" x="463" y="175" width="2" height="1">
   <ellipse/>
  </object>
  <object id="794" x="466" y="179">
   <ellipse/>
  </object>
  <object id="795" x="418" y="139">
   <ellipse/>
  </object>
  <object id="796" x="420" y="151">
   <ellipse/>
  </object>
  <object id="797" x="422" y="166">
   <ellipse/>
  </object>
  <object id="798" x="422" y="179">
   <ellipse/>
  </object>
  <object id="799" x="423" y="181">
   <ellipse/>
  </object>
  <object id="800" x="436" y="167">
   <ellipse/>
  </object>
  <object id="801" x="434" y="156">
   <ellipse/>
  </object>
  <object id="802" x="411" y="167">
   <ellipse/>
  </object>
  <object id="803" x="405" y="161">
   <ellipse/>
  </object>
  <object id="804" x="397" y="157">
   <ellipse/>
  </object>
  <object id="805" x="391" y="156">
   <ellipse/>
  </object>
  <object id="806" x="385" y="163">
   <ellipse/>
  </object>
  <object id="810" x="392" y="182">
   <ellipse/>
  </object>
  <object id="811" x="388" y="183">
   <ellipse/>
  </object>
  <object id="812" x="402" y="179">
   <ellipse/>
  </object>
  <object id="813" x="402" y="173">
   <ellipse/>
  </object>
  <object id="814" x="406" y="178">
   <ellipse/>
  </object>
  <object id="815" x="410" y="185">
   <ellipse/>
  </object>
  <object id="816" x="390" y="191">
   <ellipse/>
  </object>
  <object id="817" x="390" y="198">
   <ellipse/>
  </object>
  <object id="818" x="375" y="197">
   <ellipse/>
  </object>
  <object id="819" x="378" y="186">
   <ellipse/>
  </object>
  <object id="820" x="465" y="240">
   <ellipse/>
  </object>
  <object id="821" x="500" y="231">
   <ellipse/>
  </object>
  <object id="822" x="487" y="232">
   <ellipse/>
  </object>
  <object id="824" x="481" y="230">
   <ellipse/>
  </object>
  <object id="825" x="477" y="233">
   <ellipse/>
  </object>
  <object id="826" x="538" y="229">
   <ellipse/>
  </object>
  <object id="827" x="536" y="221">
   <ellipse/>
  </object>
  <object id="828" x="537" y="215">
   <ellipse/>
  </object>
  <object id="829" x="537" y="206">
   <ellipse/>
  </object>
  <object id="830" x="531" y="214" height="1">
   <ellipse/>
  </object>
  <object id="831" x="528" y="215">
   <ellipse/>
  </object>
  <object id="832" x="523" y="220">
   <ellipse/>
  </object>
  <object id="833" x="529" y="227">
   <ellipse/>
  </object>
  <object id="834" x="545" y="224">
   <ellipse/>
  </object>
  <object id="835" x="546" y="214">
   <ellipse/>
  </object>
  <object id="836" x="404" y="425">
   <ellipse/>
  </object>
  <object id="837" x="396" y="415">
   <ellipse/>
  </object>
  <object id="838" x="389" y="436">
   <ellipse/>
  </object>
  <object id="839" x="379" y="430">
   <ellipse/>
  </object>
  <object id="840" x="369" y="425">
   <ellipse/>
  </object>
  <object id="841" x="369" y="422">
   <ellipse/>
  </object>
  <object id="842" x="386" y="419">
   <ellipse/>
  </object>
  <object id="843" x="386" y="412">
   <ellipse/>
  </object>
  <object id="844" x="382" y="403">
   <ellipse/>
  </object>
  <object id="845" x="383" y="398">
   <ellipse/>
  </object>
  <object id="846" x="385" y="391">
   <ellipse/>
  </object>
  <object id="847" x="386" y="386">
   <ellipse/>
  </object>
  <object id="848" x="386" y="381">
   <ellipse/>
  </object>
  <object id="849" x="384" y="371">
   <ellipse/>
  </object>
  <object id="850" x="399" y="381">
   <ellipse/>
  </object>
  <object id="851" x="374" y="382">
   <ellipse/>
  </object>
  <object id="852" x="376" y="399">
   <ellipse/>
  </object>
  <object id="853" x="392" y="395">
   <ellipse/>
  </object>
  <object id="854" x="725" y="177">
   <ellipse/>
  </object>
  <object id="855" x="740" y="178">
   <ellipse/>
  </object>
  <object id="856" x="751" y="173">
   <ellipse/>
  </object>
  <object id="857" x="742" y="163">
   <ellipse/>
  </object>
  <object id="858" x="741" y="160">
   <ellipse/>
  </object>
  <object id="859" x="736" y="163">
   <ellipse/>
  </object>
  <object id="860" x="983" y="204">
   <ellipse/>
  </object>
  <object id="861" x="973" y="186">
   <ellipse/>
  </object>
  <object id="862" x="956" y="189">
   <ellipse/>
  </object>
  <object id="863" x="898" y="192">
   <ellipse/>
  </object>
  <object id="864" x="822" y="307">
   <ellipse/>
  </object>
  <object id="865" x="846" y="295" width="1">
   <ellipse/>
  </object>
  <object id="866" x="852" y="296">
   <ellipse/>
  </object>
  <object id="867" x="869" y="281">
   <ellipse/>
  </object>
  <object id="869" x="867" y="292">
   <ellipse/>
  </object>
  <object id="870" x="875" y="293">
   <ellipse/>
  </object>
  <object id="871" x="827" y="250">
   <ellipse/>
  </object>
  <object id="872" x="827" y="263">
   <ellipse/>
  </object>
  <object id="873" x="827" y="270">
   <ellipse/>
  </object>
  <object id="874" x="831" y="257">
   <ellipse/>
  </object>
  <object id="875" x="700" y="30" width="69" height="34"/>
  <object id="876" x="757" y="36"/>
  <object id="878" x="730" y="35"/>
  <object id="879" x="704" y="50"/>
  <object id="880" x="699" y="55"/>
  <object id="881" x="709" y="60"/>
  <object id="882" x="733" y="60"/>
  <object id="883" x="756" y="55"/>
  <object id="884" x="770" y="48"/>
  <object id="885" x="894" y="445">
   <ellipse/>
  </object>
  <object id="886" x="874" y="438" width="1" height="1">
   <ellipse/>
  </object>
  <object id="887" x="875" y="441">
   <ellipse/>
  </object>
  <object id="888" x="987" y="42">
   <ellipse/>
  </object>
  <object id="889" x="988" y="25">
   <ellipse/>
  </object>
  <object id="890" x="1006" y="33">
   <ellipse/>
  </object>
  <object id="891" x="1004" y="41">
   <ellipse/>
  </object>
  <object id="892" x="1010" y="39">
   <ellipse/>
  </object>
  <object id="894" x="771" y="136">
   <ellipse/>
  </object>
  <object id="895" x="778" y="142">
   <ellipse/>
  </object>
  <object id="896" x="857" y="374">
   <ellipse/>
  </object>
  <object id="897" x="859" y="363">
   <ellipse/>
  </object>
  <object id="898" x="914" y="471">
   <ellipse/>
  </object>
  <object id="899" x="912" y="458">
   <ellipse/>
  </object>
  <object id="900" x="910" y="470">
   <ellipse/>
  </object>
  <object id="901" x="824" y="504">
   <ellipse/>
  </object>
  <object id="902" x="832" y="510">
   <ellipse/>
  </object>
  <object id="903" x="846" y="503">
   <ellipse/>
  </object>
  <object id="904" x="846" y="498">
   <ellipse/>
  </object>
  <object id="905" x="848" y="492">
   <ellipse/>
  </object>
  <object id="906" x="846" y="485">
   <ellipse/>
  </object>
  <object id="907" x="846" y="482">
   <ellipse/>
  </object>
  <object id="908" x="846" y="478">
   <ellipse/>
  </object>
  <object id="909" x="839" y="486">
   <ellipse/>
  </object>
  <object id="910" x="835" y="483">
   <ellipse/>
  </object>
  <object id="911" x="853" y="484">
   <ellipse/>
  </object>
  <object id="912" x="858" y="484">
   <ellipse/>
  </object>
  <object id="913" x="863" y="481">
   <ellipse/>
  </object>
  <object id="914" x="863" y="476">
   <ellipse/>
  </object>
  <object id="915" x="837" y="477">
   <ellipse/>
  </object>
  <object id="916" x="844" y="470">
   <ellipse/>
  </object>
  <object id="917" x="838" y="463">
   <ellipse/>
  </object>
  <object id="918" x="1146" y="615">
   <ellipse/>
  </object>
  <object id="919" x="1165" y="609">
   <ellipse/>
  </object>
  <object id="920" x="1183" y="613">
   <ellipse/>
  </object>
  <object id="921" x="1164" y="596">
   <ellipse/>
  </object>
  <object id="922" x="1157" y="603">
   <ellipse/>
  </object>
  <object id="923" x="1071" y="31">
   <ellipse/>
  </object>
  <object id="924" x="1069" y="19">
   <ellipse/>
  </object>
  <object id="925" x="1065" y="22">
   <ellipse/>
  </object>
  <object id="926" x="1072" y="23">
   <ellipse/>
  </object>
  <object id="927" x="863" y="33">
   <ellipse/>
  </object>
  <object id="929" x="851" y="46">
   <ellipse/>
  </object>
  <object id="930" x="845" y="57">
   <ellipse/>
  </object>
  <object id="931" x="841" y="66">
   <ellipse/>
  </object>
  <object id="932" x="842" y="76">
   <ellipse/>
  </object>
  <object id="933" x="844" y="82">
   <ellipse/>
  </object>
  <object id="934" x="862" y="78">
   <ellipse/>
  </object>
  <object id="935" x="862" y="67">
   <ellipse/>
  </object>
  <object id="936" x="862" y="58">
   <ellipse/>
  </object>
  <object id="937" x="862" y="51">
   <ellipse/>
  </object>
  <object id="938" x="879" y="60">
   <ellipse/>
  </object>
  <object id="939" x="881" y="53">
   <ellipse/>
  </object>
  <object id="940" x="880" y="46">
   <ellipse/>
  </object>
  <object id="941" x="878" y="43">
   <ellipse/>
  </object>
  <object id="942" x="894" y="98">
   <ellipse/>
  </object>
  <object id="943" x="894" y="90">
   <ellipse/>
  </object>
  <object id="944" x="894" y="85">
   <ellipse/>
  </object>
  <object id="945" x="889" y="83">
   <ellipse/>
  </object>
  <object id="946" x="887" y="87">
   <ellipse/>
  </object>
  <object id="947" x="885" y="91">
   <ellipse/>
  </object>
  <object id="948" x="1144" y="11">
   <ellipse/>
  </object>
  <object id="949" x="1150" y="16">
   <ellipse/>
  </object>
  <object id="950" x="1144" y="19">
   <ellipse/>
  </object>
  <object id="951" x="1170" y="22" width="67" height="38">
   <ellipse/>
  </object>
  <object id="952" x="1214" y="22">
   <ellipse/>
  </object>
  <object id="953" x="1210" y="17">
   <ellipse/>
  </object>
  <object id="954" x="1204" y="24">
   <ellipse/>
  </object>
  <object id="955" x="1180" y="21">
   <ellipse/>
  </object>
  <object id="956" x="1172" y="23" width="1" height="2">
   <ellipse/>
  </object>
  <object id="957" x="1162" y="38">
   <ellipse/>
  </object>
  <object id="958" x="1170" y="27">
   <ellipse/>
  </object>
  <object id="959" x="1167" y="49" width="1">
   <ellipse/>
  </object>
  <object id="960" x="1160" y="66">
   <ellipse/>
  </object>
  <object id="961" x="1156" y="69">
   <ellipse/>
  </object>
  <object id="962" x="1166" y="80">
   <ellipse/>
  </object>
  <object id="963" x="1184" y="93">
   <ellipse/>
  </object>
  <object id="964" x="1191" y="100">
   <ellipse/>
  </object>
  <object id="965" x="1193" y="90">
   <ellipse/>
  </object>
  <object id="966" x="1195" y="82">
   <ellipse/>
  </object>
  <object id="967" x="1193" y="79">
   <ellipse/>
  </object>
  <object id="968" x="1189" y="80">
   <ellipse/>
  </object>
  <object id="969" x="1185" y="66">
   <ellipse/>
  </object>
  <object id="970" x="1172" y="64">
   <ellipse/>
  </object>
  <object id="971" x="1174" y="62">
   <ellipse/>
  </object>
  <object id="972" x="1186" y="54">
   <ellipse/>
  </object>
  <object id="973" x="1180" y="52" width="5">
   <ellipse/>
  </object>
  <object id="974" x="1174" y="55">
   <ellipse/>
  </object>
  <object id="975" x="1166" y="57">
   <ellipse/>
  </object>
  <object id="976" x="1164" y="55">
   <ellipse/>
  </object>
  <object id="977" x="1168" y="45">
   <ellipse/>
  </object>
  <object id="978" x="1179" y="21">
   <ellipse/>
  </object>
  <object id="979" x="1175" y="25" width="1" height="2">
   <ellipse/>
  </object>
  <object id="980" x="1169" y="33" width="1" height="1">
   <ellipse/>
  </object>
  <object id="981" x="1167" y="41">
   <ellipse/>
  </object>
  <object id="982" x="1167" y="49" width="1" height="6">
   <ellipse/>
  </object>
  <object id="983" x="1203" y="76">
   <ellipse/>
  </object>
  <object id="984" x="1213" y="74">
   <ellipse/>
  </object>
  <object id="985" x="1212" y="64">
   <ellipse/>
  </object>
  <object id="986" x="1198" y="65">
   <ellipse/>
  </object>
  <object id="987" x="1196" y="63" width="2" height="1">
   <ellipse/>
  </object>
  <object id="988" x="1207" y="55">
   <ellipse/>
  </object>
  <object id="989" x="1220" y="49">
   <ellipse/>
  </object>
  <object id="990" x="1226" y="39">
   <ellipse/>
  </object>
  <object id="991" x="1226" y="33">
   <ellipse/>
  </object>
  <object id="992" x="1214" y="24">
   <ellipse/>
  </object>
  <object id="993" x="1187" y="35">
   <ellipse/>
  </object>
  <object id="994" x="1196" y="26">
   <ellipse/>
  </object>
  <object id="995" x="1239" y="142">
   <ellipse/>
  </object>
  <object id="996" x="1229" y="158">
   <ellipse/>
  </object>
  <object id="997" x="1229" y="170">
   <ellipse/>
  </object>
  <object id="998" x="1224" y="173">
   <ellipse/>
  </object>
  <object id="999" x="1222" y="167">
   <ellipse/>
  </object>
  <object id="1000" x="1010" y="105">
   <ellipse/>
  </object>
  <object id="1001" x="1002" y="116">
   <ellipse/>
  </object>
  <object id="1002" x="1025" y="161">
   <ellipse/>
  </object>
  <object id="1003" x="1024" y="151">
   <ellipse/>
  </object>
  <object id="1004" x="1023" y="141">
   <ellipse/>
  </object>
  <object id="1005" x="1023" y="133">
   <ellipse/>
  </object>
  <object id="1006" x="1025" y="129">
   <ellipse/>
  </object>
  <object id="1007" x="1026" y="123">
   <ellipse/>
  </object>
  <object id="1008" x="1026" y="119">
   <ellipse/>
  </object>
  <object id="1009" x="1009" y="142">
   <ellipse/>
  </object>
  <object id="1010" x="1007" y="132">
   <ellipse/>
  </object>
  <object id="1011" x="1015" y="150">
   <ellipse/>
  </object>
  <object id="1012" x="1053" y="149">
   <ellipse/>
  </object>
  <object id="1013" x="1055" y="140">
   <ellipse/>
  </object>
  <object id="1014" x="1055" y="133">
   <ellipse/>
  </object>
  <object id="1015" x="1055" y="129">
   <ellipse/>
  </object>
  <object id="1016" x="1055" y="121">
   <ellipse/>
  </object>
  <object id="1017" x="1055" y="117">
   <ellipse/>
  </object>
  <object id="1018" x="1055" y="110">
   <ellipse/>
  </object>
  <object id="1019" x="1054" y="101">
   <ellipse/>
  </object>
  <object id="1020" x="1041" y="106">
   <ellipse/>
  </object>
  <object id="1021" x="1063" y="113">
   <ellipse/>
  </object>
  <object id="1022" x="1071" y="123">
   <ellipse/>
  </object>
  <object id="1023" x="1043" y="126">
   <ellipse/>
  </object>
  <object id="1024" x="1069" y="163">
   <ellipse/>
  </object>
  <object id="1025" x="1071" y="159">
   <ellipse/>
  </object>
  <object id="1026" x="1069" y="153">
   <ellipse/>
  </object>
  <object id="1027" x="1068" y="150" width="1">
   <ellipse/>
  </object>
  <object id="1028" x="1067" y="143">
   <ellipse/>
  </object>
  <object id="1029" x="1070" y="157">
   <ellipse/>
  </object>
  <object id="1030" x="1233" y="424">
   <ellipse/>
  </object>
  <object id="1031" x="1219" y="408">
   <ellipse/>
  </object>
  <object id="1032" x="1209" y="397">
   <ellipse/>
  </object>
  <object id="1033" x="1210" y="391">
   <ellipse/>
  </object>
  <object id="1034" x="1216" y="387">
   <ellipse/>
  </object>
  <object id="1035" x="1216" y="381">
   <ellipse/>
  </object>
  <object id="1036" x="1221" y="386">
   <ellipse/>
  </object>
  <object id="1037" x="1227" y="391">
   <ellipse/>
  </object>
  <object id="1038" x="1228" y="395">
   <ellipse/>
  </object>
  <object id="1039" x="1224" y="406">
   <ellipse/>
  </object>
  <object id="1040" x="1223" y="402">
   <ellipse/>
  </object>
  <object id="1043" x="1138" y="556">
   <ellipse/>
  </object>
  <object id="1046" x="1132" y="559">
   <ellipse/>
  </object>
  <object id="1048" x="1186" y="472"/>
  <object id="1049" x="1176" y="494"/>
  <object id="1050" x="1171" y="501"/>
  <object id="1051" x="1167" y="507"/>
  <object id="1052" x="1182" y="480" width="34" height="57"/>
  <object id="1053" x="1180" y="529"/>
  <object id="1054" x="1182" y="522"/>
  <object id="1055" x="1217" y="511"/>
  <object id="1056" x="1226" y="507"/>
  <object id="1057" x="1227" y="504"/>
  <object id="1058" x="1224" y="499"/>
  <object id="1059" x="1224" y="493"/>
  <object id="1060" x="1219" y="490"/>
  <object id="1061" x="1216" y="484"/>
  <object id="1062" x="1213" y="480"/>
  <object id="1063" x="1202" y="478"/>
  <object id="1064" x="1193" y="480"/>
  <object id="1065" x="1191" y="480"/>
  <object id="1066" x="1185" y="486"/>
  <object id="1067" x="1227" y="577"/>
  <object id="1068" x="1223" y="570"/>
  <object id="1069" x="1223" y="556"/>
  <object id="1070" x="993" y="571" width="61" height="38"/>
  <object id="1071" x="1015" y="572"/>
  <object id="1072" x="1018" y="607"/>
  <object id="1073" x="886" y="739"/>
  <object id="1074" x="840" y="686"/>
  <object id="1075" x="854" y="682"/>
  <object id="1076" x="863" y="684"/>
  <object id="1077" x="1214" y="682"/>
  <object id="1078" x="1215" y="697"/>
  <object id="1079" x="1167" y="713"/>
  <object id="1080" x="1179" y="713"/>
  <object id="1081" x="1185" y="712"/>
  <object id="1082" x="1177" y="726"/>
  <object id="1083" x="1227" y="750"/>
  <object id="1084" x="1222" y="756"/>
  <object id="1085" x="1233" y="756"/>
  <object id="1086" x="1230" y="748"/>
  <object id="1087" x="1226" y="740"/>
  <object id="1088" x="1189" y="725"/>
  <object id="1089" x="1190" y="719"/>
  <object id="1090" x="1216" y="752"/>
  <object id="1091" x="1216" y="757"/>
  <object id="1092" x="794" y="808"/>
  <object id="1093" x="800" y="833"/>
  <object id="1094" x="791" y="825"/>
  <object id="1095" x="805" y="821"/>
  <object id="1096" x="784" y="948"/>
  <object id="1097" x="769" y="943"/>
  <object id="1098" x="769" y="931"/>
  <object id="1099" x="757" y="941"/>
  <object id="1100" x="927" y="739"/>
  <object id="1101" x="928" y="731"/>
  <object id="1102" x="928" y="726"/>
  <object id="1103" x="929" y="719"/>
  <object id="1104" x="929" y="714"/>
  <object id="1105" x="929" y="711"/>
  <object id="1106" x="927" y="700"/>
  <object id="1107" x="916" y="722"/>
  <object id="1108" x="916" y="713"/>
  <object id="1109" x="919" y="706"/>
  <object id="1110" x="937" y="719"/>
  <object id="1111" x="943" y="719"/>
  <object id="1112" x="939" y="710"/>
  <object id="1113" x="1210" y="1042"/>
  <object id="1114" x="1210" y="1033"/>
  <object id="1115" x="1211" y="1026"/>
  <object id="1116" x="1211" y="1022"/>
  <object id="1117" x="1211" y="1017"/>
  <object id="1118" x="1211" y="1010"/>
  <object id="1119" x="1210" y="1007"/>
  <object id="1121" x="864" y="1200"/>
  <object id="1122" x="860" y="1192"/>
  <object id="1123" x="847" y="1200"/>
  <object id="1124" x="730" y="1065" width="69" height="34"/>
  <object id="1125" x="739" y="1066"/>
  <object id="1126" x="745" y="1053"/>
  <object id="1127" x="748" y="1045"/>
  <object id="1128" x="759" y="1034"/>
  <object id="1129" x="759" y="1045"/>
  <object id="1130" x="756" y="1062"/>
  <object id="1131" x="768" y="1061"/>
  <object id="1132" x="776" y="1060"/>
  <object id="1133" x="784" y="1058"/>
  <object id="1134" x="784" y="1057"/>
  <object id="1135" x="783" y="1055"/>
  <object id="1136" x="779" y="1053"/>
  <object id="1137" x="774" y="1050"/>
  <object id="1138" x="775" y="1042"/>
  <object id="1139" x="735" y="1063"/>
  <object id="1140" x="733" y="1071" height="2"/>
  <object id="1141" x="737" y="1080"/>
  <object id="1142" x="730" y="1068" height="1"/>
  <object id="1143" x="723" y="1072"/>
  <object id="1144" x="730" y="1077"/>
  <object id="1145" x="733" y="1088"/>
  <object id="1146" x="1113" y="1159"/>
  <object id="1147" x="1110" y="1174"/>
  <object id="1148" x="1104" y="1175"/>
  <object id="1149" x="1111" y="1186"/>
  <object id="1150" x="1135" y="1199"/>
  <object id="1151" x="1125" y="1169"/>
  <object id="1152" x="1134" y="1164"/>
  <object id="1153" x="1140" y="1158"/>
  <object id="1154" x="1141" y="1151"/>
  <object id="1155" x="1143" y="1144"/>
  <object id="1156" x="1155" y="1144"/>
  <object id="1157" x="1163" y="1142"/>
  <object id="1158" x="1166" y="1136"/>
  <object id="1159" x="1174" y="1141"/>
  <object id="1160" x="1178" y="1147"/>
  <object id="1161" x="1179" y="1152"/>
  <object id="1162" x="1165" y="1159"/>
  <object id="1163" x="1153" y="1173"/>
  <object id="1164" x="1174" y="1172"/>
  <object id="1165" x="1168" y="1186"/>
  <object id="1166" x="1158" y="1187"/>
  <object id="1167" x="1143" y="1184"/>
  <object id="1168" x="1150" y="1176"/>
  <object id="1169" x="1157" y="1165"/>
  <object id="1170" x="1157" y="1161"/>
  <object id="1171" x="1139" y="1175"/>
  <object id="1172" x="1133" y="1180"/>
  <object id="1173" x="1128" y="1185"/>
  <object id="1174" x="1008" y="1224"/>
  <object id="1175" x="1007" y="1212"/>
  <object id="1176" x="1007" y="1209"/>
  <object id="1177" x="1007" y="1205"/>
  <object id="1178" x="1009" y="1195"/>
  <object id="1179" x="1008" y="1186"/>
  <object id="1180" x="961" y="1199">
   <ellipse/>
  </object>
  <object id="1181" x="46" y="759">
   <ellipse/>
  </object>
  <object id="1182" x="42" y="757">
   <ellipse/>
  </object>
  <object id="1183" x="21" y="759">
   <ellipse/>
  </object>
  <object id="1184" x="23" y="773">
   <ellipse/>
  </object>
  <object id="1185" x="21" y="786">
   <ellipse/>
  </object>
  <object id="1186" x="15" y="779">
   <ellipse/>
  </object>
  <object id="1187" x="11" y="775">
   <ellipse/>
  </object>
  <object id="1188" x="13" y="768">
   <ellipse/>
  </object>
  <object id="1189" x="25" y="768">
   <ellipse/>
  </object>
  <object id="1190" x="28" y="777">
   <ellipse/>
  </object>
  <object id="1191" x="29" y="768">
   <ellipse/>
  </object>
  <object id="1192" x="13" y="718">
   <ellipse/>
  </object>
  <object id="1193" x="77" y="643">
   <ellipse/>
  </object>
  <object id="1194" x="78" y="658">
   <ellipse/>
  </object>
  <object id="1195" x="77" y="667">
   <ellipse/>
  </object>
  <object id="1196" x="76" y="676">
   <ellipse/>
  </object>
  <object id="1197" x="76" y="685">
   <ellipse/>
  </object>
  <object id="1198" x="94" y="686">
   <ellipse/>
  </object>
  <object id="1199" x="98" y="678">
   <ellipse/>
  </object>
  <object id="1200" x="94" y="661">
   <ellipse/>
  </object>
  <object id="1201" x="92" y="655">
   <ellipse/>
  </object>
  <object id="1202" x="69" y="667">
   <ellipse/>
  </object>
  <object id="1203" x="68" y="660">
   <ellipse/>
  </object>
  <object id="1204" x="68" y="655">
   <ellipse/>
  </object>
  <object id="1205" x="171" y="682" width="75" height="37">
   <ellipse/>
  </object>
  <object id="1206" x="217" y="682">
   <ellipse/>
  </object>
  <object id="1207" x="210" y="681">
   <ellipse/>
  </object>
  <object id="1208" x="199" y="681">
   <ellipse/>
  </object>
  <object id="1209" x="190" y="680">
   <ellipse/>
  </object>
  <object id="1210" x="184" y="680">
   <ellipse/>
  </object>
  <object id="1211" x="178" y="680">
   <ellipse/>
  </object>
  <object id="1212" x="173" y="681">
   <ellipse/>
  </object>
  <object id="1213" x="171" y="687">
   <ellipse/>
  </object>
  <object id="1214" x="169" y="691">
   <ellipse/>
  </object>
  <object id="1215" x="168" y="697">
   <ellipse/>
  </object>
  <object id="1216" x="168" y="697" width="1" height="2">
   <ellipse/>
  </object>
  <object id="1217" x="171" y="711">
   <ellipse/>
  </object>
  <object id="1218" x="231" y="721">
   <ellipse/>
  </object>
  <object id="1219" x="206" y="671">
   <ellipse/>
  </object>
  <object id="1220" x="206" y="665">
   <ellipse/>
  </object>
  <object id="1221" x="202" y="663" width="1">
   <ellipse/>
  </object>
  <object id="1222" x="197" y="668">
   <ellipse/>
  </object>
  <object id="1223" x="188" y="670">
   <ellipse/>
  </object>
  <object id="1224" x="181" y="671">
   <ellipse/>
  </object>
  <object id="1225" x="174" y="681">
   <ellipse/>
  </object>
  <object id="1226" x="167" y="683">
   <ellipse/>
  </object>
  <object id="1227" x="165" y="689">
   <ellipse/>
  </object>
  <object id="1228" x="164" y="690">
   <ellipse/>
  </object>
  <object id="1229" x="160" y="693">
   <ellipse/>
  </object>
  <object id="1230" x="167" y="702">
   <ellipse/>
  </object>
  <object id="1231" x="379" y="764">
   <ellipse/>
  </object>
  <object id="1232" x="398" y="767">
   <ellipse/>
  </object>
  <object id="1233" x="401" y="755">
   <ellipse/>
  </object>
  <object id="1234" x="401" y="751">
   <ellipse/>
  </object>
  <object id="1235" x="407" y="749">
   <ellipse/>
  </object>
  <object id="1236" x="425" y="749">
   <ellipse/>
  </object>
  <object id="1237" x="429" y="768">
   <ellipse/>
  </object>
  <object id="1238" x="441" y="746">
   <ellipse/>
  </object>
  <object id="1239" x="439" y="740">
   <ellipse/>
  </object>
  <object id="1240" x="49" y="940">
   <ellipse/>
  </object>
  <object id="1241" x="61" y="943">
   <ellipse/>
  </object>
  <object id="1242" x="72" y="934">
   <ellipse/>
  </object>
  <object id="1243" x="83" y="936">
   <ellipse/>
  </object>
  <object id="1244" x="500" y="887">
   <ellipse/>
  </object>
  <object id="1245" x="510" y="890">
   <ellipse/>
  </object>
  <object id="1246" x="528" y="886">
   <ellipse/>
  </object>
  <object id="1247" x="529" y="876">
   <ellipse/>
  </object>
  <object id="1248" x="527" y="877">
   <ellipse/>
  </object>
  <object id="1249" x="526" y="872">
   <ellipse/>
  </object>
  <object id="1250" x="527" y="867">
   <ellipse/>
  </object>
  <object id="1251" x="531" y="859">
   <ellipse/>
  </object>
  <object id="1252" x="523" y="866">
   <ellipse/>
  </object>
  <object id="1253" x="521" y="874">
   <ellipse/>
  </object>
  <object id="1254" x="537" y="875">
   <ellipse/>
  </object>
  <object id="1255" x="537" y="871">
   <ellipse/>
  </object>
  <object id="1256" x="14" y="1124">
   <ellipse/>
  </object>
  <object id="1257" x="68" y="1218">
   <ellipse/>
  </object>
  <object id="1258" x="59" y="1215">
   <ellipse/>
  </object>
  <object id="1259" x="43" y="1214">
   <ellipse/>
  </object>
  <object id="1260" x="42" y="1201">
   <ellipse/>
  </object>
  <object id="1261" x="41" y="1192">
   <ellipse/>
  </object>
  <object id="1262" x="33" y="1202">
   <ellipse/>
  </object>
  <object id="1263" x="32" y="1206">
   <ellipse/>
  </object>
  <object id="1264" x="47" y="1200">
   <ellipse/>
  </object>
  <object id="1265" x="553" y="1225">
   <ellipse/>
  </object>
  <object id="1266" x="560" y="1223">
   <ellipse/>
  </object>
  <object id="1267" x="651" y="1218">
   <ellipse/>
  </object>
  <object id="1268" x="492" y="1166">
   <ellipse/>
  </object>
  <object id="1269" x="493" y="1160">
   <ellipse/>
  </object>
  <object id="1270" x="511" y="1161">
   <ellipse/>
  </object>
  <object id="1271" x="512" y="1148">
   <ellipse/>
  </object>
  <object id="1272" x="520" y="1148">
   <ellipse/>
  </object>
  <object id="1273" x="518" y="1146">
   <ellipse/>
  </object>
  <object id="1274" x="533" y="1160">
   <ellipse/>
  </object>
  <object id="1275" x="533" y="1142">
   <ellipse/>
  </object>
  <object id="1276" x="534" y="1137">
   <ellipse/>
  </object>
  <object id="1277" x="347" y="1185">
   <ellipse/>
  </object>
  <object id="1278" x="347" y="1179">
   <ellipse/>
  </object>
  <object id="1279" x="347" y="1172">
   <ellipse/>
  </object>
  <object id="1280" x="346" y="1166" height="1">
   <ellipse/>
  </object>
  <object id="1281" x="335" y="1179">
   <ellipse/>
  </object>
  <object id="1282" x="343" y="1173">
   <ellipse/>
  </object>
  <object id="1283" x="344" y="1168">
   <ellipse/>
  </object>
  <object id="1284" x="351" y="1172">
   <ellipse/>
  </object>
  <object id="1285" x="353" y="1169">
   <ellipse/>
  </object>
  <object id="1286" x="349" y="1165">
   <ellipse/>
  </object>
  <object id="1287" x="333" y="1151">
   <ellipse/>
  </object>
  <object id="1288" x="333" y="1145">
   <ellipse/>
  </object>
  <object id="1289" x="333" y="1141">
   <ellipse/>
  </object>
  <object id="1290" x="333" y="1140">
   <ellipse/>
  </object>
  <object id="1291" x="333" y="1131">
   <ellipse/>
  </object>
  <object id="1292" x="333" y="1125">
   <ellipse/>
  </object>
  <object id="1293" x="379" y="1156">
   <ellipse/>
  </object>
  <object id="1294" x="376" y="1146">
   <ellipse/>
  </object>
  <object id="1295" x="375" y="1145">
   <ellipse/>
  </object>
  <object id="1296" x="375" y="1140" height="1">
   <ellipse/>
  </object>
  <object id="1297" x="375" y="1135">
   <ellipse/>
  </object>
  <object id="1298" x="377" y="1128" width="1">
   <ellipse/>
  </object>
  <object id="1299" x="379" y="1127">
   <ellipse/>
  </object>
  <object id="1300" x="379" y="1117">
   <ellipse/>
  </object>
  <object id="1301" x="379" y="1112">
   <ellipse/>
  </object>
  <object id="1302" x="363" y="1129">
   <ellipse/>
  </object>
  <object id="1303" x="369" y="1126">
   <ellipse/>
  </object>
  <object id="1304" x="371" y="1120">
   <ellipse/>
  </object>
  <object id="1305" x="370" y="1138">
   <ellipse/>
  </object>
  <object id="1306" x="389" y="1138">
   <ellipse/>
  </object>
  <object id="1307" x="389" y="1135" width="1" height="1">
   <ellipse/>
  </object>
  <object id="1308" x="393" y="1132">
   <ellipse/>
  </object>
  <object id="1309" x="393" y="1132">
   <ellipse/>
  </object>
  <object id="1310" x="397" y="1158">
   <ellipse/>
  </object>
  <object id="1311" x="88" y="1072" width="1" height="1">
   <ellipse/>
  </object>
  <object id="1312" x="92" y="1073">
   <ellipse/>
  </object>
  <object id="1313" x="88" y="1084">
   <ellipse/>
  </object>
  <object id="1314" x="88" y="1095">
   <ellipse/>
  </object>
  <object id="1315" x="99" y="1100">
   <ellipse/>
  </object>
  <object id="1316" x="106" y="1098">
   <ellipse/>
  </object>
  <object id="1317" x="108" y="1088">
   <ellipse/>
  </object>
  <object id="1318" x="103" y="1086">
   <ellipse/>
  </object>
  <object id="1319" x="110" y="1084" width="2">
   <ellipse/>
  </object>
  <object id="1320" x="114" y="1080">
   <ellipse/>
  </object>
  <object id="1321" x="117" y="1077">
   <ellipse/>
  </object>
  <object id="1322" x="108" y="1075">
   <ellipse/>
  </object>
  <object id="1323" x="104" y="1071" width="3" height="2">
   <ellipse/>
  </object>
  <object id="1324" x="111" y="1069">
   <ellipse/>
  </object>
  <object id="1325" x="111" y="1069">
   <ellipse/>
  </object>
  <object id="1326" x="112" y="1066">
   <ellipse/>
  </object>
  <object id="1327" x="111" y="1065">
   <ellipse/>
  </object>
  <object id="1328" x="109" y="1061">
   <ellipse/>
  </object>
  <object id="1329" x="101" y="1055">
   <ellipse/>
  </object>
  <object id="1330" x="97" y="1061">
   <ellipse/>
  </object>
  <object id="1331" x="95" y="1081" height="2">
   <ellipse/>
  </object>
  <object id="1332" x="117" y="1122" width="1">
   <ellipse/>
  </object>
  <object id="1333" x="113" y="1125">
   <ellipse/>
  </object>
  <object id="1334" x="118" y="1116">
   <ellipse/>
  </object>
  <object id="1335" x="113" y="1111">
   <ellipse/>
  </object>
  <object id="1336" x="113" y="1093">
   <ellipse/>
  </object>
  <object id="1337" x="136" y="1113">
   <ellipse/>
  </object>
  <object id="1338" x="137" y="1106">
   <ellipse/>
  </object>
  <object id="1339" x="139" y="1094">
   <ellipse/>
  </object>
  <object id="1340" x="129" y="1105">
   <ellipse/>
  </object>
  <object id="1341" x="141" y="1105">
   <ellipse/>
  </object>
  <object id="1342" x="195" y="998">
   <ellipse/>
  </object>
  <object id="1343" x="182" y="986">
   <ellipse/>
  </object>
  <object id="1344" x="178" y="975">
   <ellipse/>
  </object>
  <object id="1345" x="158" y="970">
   <ellipse/>
  </object>
  <object id="1346" x="160" y="981">
   <ellipse/>
  </object>
  <object id="1347" x="157" y="993">
   <ellipse/>
  </object>
  <object id="1348" x="170" y="993">
   <ellipse/>
  </object>
  <object id="1349" x="151" y="983">
   <ellipse/>
  </object>
  <object id="1350" x="336" y="912">
   <ellipse/>
  </object>
  <object id="1351" x="319" y="911">
   <ellipse/>
  </object>
  <object id="1352" x="308" y="905">
   <ellipse/>
  </object>
  <object id="1353" x="316" y="900">
   <ellipse/>
  </object>
  <object id="1354" x="319" y="899">
   <ellipse/>
  </object>
  <object id="1355" x="331" y="895">
   <ellipse/>
  </object>
  <object id="1356" x="339" y="896">
   <ellipse/>
  </object>
  <object id="1357" x="334" y="902">
   <ellipse/>
  </object>
  <object id="1358" x="321" y="886">
   <ellipse/>
  </object>
  <object id="1359" x="319" y="879">
   <ellipse/>
  </object>
  <object id="1360" x="326" y="877">
   <ellipse/>
  </object>
  <object id="1361" x="327" y="872">
   <ellipse/>
  </object>
  <object id="1362" x="329" y="870">
   <ellipse/>
  </object>
  <object id="1363" x="331" y="866">
   <ellipse/>
  </object>
  <object id="1364" x="334" y="864">
   <ellipse/>
  </object>
  <object id="1365" x="337" y="861">
   <ellipse/>
  </object>
  <object id="1366" x="343" y="864">
   <ellipse/>
  </object>
  <object id="1367" x="349" y="868">
   <ellipse/>
  </object>
  <object id="1368" x="350" y="875">
   <ellipse/>
  </object>
  <object id="1369" x="351" y="881">
   <ellipse/>
  </object>
  <object id="1370" x="354" y="885">
   <ellipse/>
  </object>
  <object id="1371" x="338" y="880">
   <ellipse/>
  </object>
  <object id="1372" x="336" y="884">
   <ellipse/>
  </object>
  <object id="1373" x="345" y="894">
   <ellipse/>
  </object>
  <object id="1374" x="353" y="901">
   <ellipse/>
  </object>
  <object id="1375" x="349" y="911">
   <ellipse/>
  </object>
  <object id="1376" x="358" y="911">
   <ellipse/>
  </object>
  <object id="1377" x="364" y="910">
   <ellipse/>
  </object>
  <object id="1378" x="365" y="904">
   <ellipse/>
  </object>
  <object id="1379" x="365" y="901">
   <ellipse/>
  </object>
  <object id="1380" x="358" y="893">
   <ellipse/>
  </object>
  <object id="1381" x="354" y="887">
   <ellipse/>
  </object>
  <object id="1382" x="324" y="895">
   <ellipse/>
  </object>
  <object id="1383" x="328" y="868" width="34" height="45">
   <ellipse/>
  </object>
  <object id="1384" x="318" y="877" width="31" height="34">
   <ellipse/>
  </object>
  <object id="1385" x="274" y="1048">
   <ellipse/>
  </object>
  <object id="1386" x="274" y="1043">
   <ellipse/>
  </object>
  <object id="1387" x="273" y="1037">
   <ellipse/>
  </object>
  <object id="1388" x="273" y="1031">
   <ellipse/>
  </object>
  <object id="1389" x="273" y="1026">
   <ellipse/>
  </object>
  <object id="1390" x="273" y="1024">
   <ellipse/>
  </object>
  <object id="1391" x="274" y="1012">
   <ellipse/>
  </object>
  <object id="1392" x="265" y="1020">
   <ellipse/>
  </object>
  <object id="1393" x="263" y="1032">
   <ellipse/>
  </object>
  <object id="1394" x="255" y="1027">
   <ellipse/>
  </object>
  <object id="1395" x="300" y="1042">
   <ellipse/>
  </object>
  <object id="1396" x="299" y="1034">
   <ellipse/>
  </object>
  <object id="1397" x="299" y="1030">
   <ellipse/>
  </object>
  <object id="1398" x="299" y="1027">
   <ellipse/>
  </object>
  <object id="1399" x="299" y="1024">
   <ellipse/>
  </object>
  <object id="1400" x="298" y="1017">
   <ellipse/>
  </object>
  <object id="1401" x="285" y="1018">
   <ellipse/>
  </object>
  <object id="1402" x="286" y="1033">
   <ellipse/>
  </object>
  <object id="1403" x="483" y="1058">
   <ellipse/>
  </object>
  <object id="1404" x="474" y="1052">
   <ellipse/>
  </object>
  <object id="1405" x="473" y="1049">
   <ellipse/>
  </object>
  <object id="1406" x="477" y="1041">
   <ellipse/>
  </object>
  <object id="1407" x="484" y="1035">
   <ellipse/>
  </object>
  <object id="1408" x="488" y="1043">
   <ellipse/>
  </object>
  <object id="1409" x="486" y="1051">
   <ellipse/>
  </object>
  <object id="1410" x="490" y="1053">
   <ellipse/>
  </object>
  <object id="1411" x="507" y="1048">
   <ellipse/>
  </object>
  <object id="1412" x="507" y="1041">
   <ellipse/>
  </object>
  <object id="1413" x="505" y="1031">
   <ellipse/>
  </object>
  <object id="1414" x="505" y="1028">
   <ellipse/>
  </object>
  <object id="1415" x="506" y="1022">
   <ellipse/>
  </object>
  <object id="1416" x="507" y="1017">
   <ellipse/>
  </object>
  <object id="1417" x="508" y="1015">
   <ellipse/>
  </object>
  <object id="1418" x="507" y="1004">
   <ellipse/>
  </object>
  <object id="1419" x="497" y="1015">
   <ellipse/>
  </object>
  <object id="1420" x="494" y="1028">
   <ellipse/>
  </object>
  <object id="1421" x="522" y="1023">
   <ellipse/>
  </object>
  <object id="1422" x="522" y="1014">
   <ellipse/>
  </object>
  <object id="1423" x="524" y="1035">
   <ellipse/>
  </object>
 </objectgroup>
</map>
